(1001)
(T1  D=0.125 CR=0. - ZMIN=0. - FLAT END MILL)
G90 G94 G91.1 G40 G49 G17
G20
G28 G91 Z0.
G90

(HORIZONTAL2)
M5
M9
T1 M6
S10000 M3
(G54)
G0 X0.164 Y-1.3928
G43 Z0.9843 H1
Z0.4331
G1 Z0.4062 F30.
G18 G2 X0.1765 Z0.3937 I0.0125 K0.
G1 X0.1768
X0.3248 Y-1.3892
X0.3273 Y-1.3894
X0.3297 Y-1.3901
X0.3319 Y-1.3912
X0.3339 Y-1.3928
G17 G3 X0.3611 Y-1.4002 I0.0201 J0.0203
X1.4166 Y-0.2749 I-0.3553 J1.391
X0.8528 Y1.1613 I-1.4269 J0.2686
X-1.4354 Y0.1236 I-0.8549 J-1.1566
X-1.1761 Y-0.8341 I1.474 J-0.1148
X-0.3611 Y-1.4002 I1.1663 J0.8094
X-0.3254 Y-1.3725 I0.0071 J0.0277
G1 Y-1.3587
G3 X-0.3536 Y-1.3225 I-0.0374 J0.
G2 X-1.3796 Y-0.0059 I0.3374 J1.3211
X-0.3703 Y1.3235 I1.3741 J0.0045
X0.7963 Y1.1199 I0.3679 J-1.3361
X1.3717 Y0.0848 I-0.7859 J-1.1144
X1.1153 Y-0.8016 I-1.3821 J-0.0805
X0.3536 Y-1.3225 I-1.095 J0.7839
G3 X0.3254 Y-1.3587 I0.0093 J-0.0363
G1 Y-1.3725
G3 X0.3339 Y-1.3928 I0.0286 J0.
G2 X0.3635 Y-1.4418 I-0.0825 J-0.0832
G3 X0.4138 Y-1.4691 I0.039 J0.0119
G1 X0.4429 Y-1.4606
X0.4485 Y-1.459
X0.4541 Y-1.4572
X0.4944 Y-1.4441
X0.499 Y-1.4425
X0.541 Y-1.4272
X0.5438 Y-1.4262
X0.5887 Y-1.4083
X0.6055 Y-1.401
X0.635 Y-1.388
X0.6784 Y-1.3673
X0.684 Y-1.3645
X0.7232 Y-1.3442
X0.765 Y-1.3208
X0.7681 Y-1.319
X0.8073 Y-1.2954
X0.8114 Y-1.2928
X0.8466 Y-1.27
X0.8522 Y-1.2663
X0.8866 Y-1.2424
X0.8914 Y-1.239
X0.897 Y-1.2349
X0.9307 Y-1.2098
X0.9419 Y-1.2009
X0.9672 Y-1.1807
X0.9699 Y-1.1786
X0.9755 Y-1.1738
X1.0069 Y-1.1471
X1.0148 Y-1.1401
X1.044 Y-1.1135
X1.0498 Y-1.1079
X1.0787 Y-1.0799
X1.082 Y-1.0765
X1.1113 Y-1.0463
X1.1166 Y-1.0407
X1.1437 Y-1.0107
X1.1493 Y-1.0044
X1.1773 Y-0.9713
X1.1803 Y-0.9678
X1.1848 Y-0.9622
X1.207 Y-0.9342
X1.2114 Y-0.9286
X1.2239 Y-0.9118
X1.2405 Y-0.8894
X1.2677 Y-0.8502
X1.2727 Y-0.8425
X1.2951 Y-0.8078
X1.2966 Y-0.8054
X1.3202 Y-0.7661
X1.3233 Y-0.7605
X1.3452 Y-0.7213
X1.368 Y-0.6771
X1.3869 Y-0.6373
X1.3895 Y-0.6317
X1.4072 Y-0.5911
X1.409 Y-0.5869
X1.4247 Y-0.5476
X1.4269 Y-0.542
X1.4296 Y-0.5345
X1.4431 Y-0.4972
X1.445 Y-0.4916
X1.4577 Y-0.4524
X1.4595 Y-0.4468
X1.4633 Y-0.4338
X1.4725 Y-0.402
X1.474 Y-0.3964
X1.4839 Y-0.3571
X1.4857 Y-0.3499
X1.4952 Y-0.3067
X1.4963 Y-0.3011
X1.5047 Y-0.2563
X1.5056 Y-0.2507
X1.5124 Y-0.2059
X1.5138 Y-0.1947
X1.5178 Y-0.1611
X1.5184 Y-0.1555
X1.5223 Y-0.1106
X1.5227 Y-0.105
X1.5251 Y-0.0602
X1.5254 Y-0.0546
X1.5263 Y-0.0098
Y-0.0042
X1.5258 Y0.0406
X1.5256 Y0.0462
X1.5236 Y0.0911
X1.5228 Y0.1023
X1.5202 Y0.1359
X1.5198 Y0.1415
X1.5149 Y0.1863
X1.5142 Y0.1919
X1.5079 Y0.2367
X1.507 Y0.2423
X1.5001 Y0.2816
X1.4991 Y0.2872
X1.498 Y0.2928
X1.4898 Y0.332
X1.4885 Y0.3376
X1.4857 Y0.3494
X1.4777 Y0.3824
X1.4762 Y0.388
X1.4653 Y0.4272
X1.4633 Y0.4342
X1.4497 Y0.4776
X1.4478 Y0.4832
X1.4341 Y0.5225
X1.4321 Y0.5281
X1.4191 Y0.5617
X1.4148 Y0.5729
X1.41 Y0.5841
X1.3958 Y0.6177
X1.3904 Y0.6295
X1.3751 Y0.6625
X1.3736 Y0.6656
X1.3526 Y0.7074
X1.3496 Y0.713
X1.3287 Y0.7512
X1.3051 Y0.7914
X1.3017 Y0.797
X1.2783 Y0.8341
X1.2769 Y0.8362
X1.2727 Y0.8425
X1.2502 Y0.8756
X1.2464 Y0.881
X1.2219 Y0.9146
X1.2177 Y0.9203
X1.1916 Y0.9539
X1.1886 Y0.9577
X1.1591 Y0.9931
X1.1542 Y0.9987
X1.1269 Y1.0295
X1.1243 Y1.0323
X1.1157 Y1.0415
X1.0925 Y1.0659
X1.0869 Y1.0715
X1.0586 Y1.0995
X1.0528 Y1.1051
X1.0204 Y1.1352
X1.0148 Y1.1401
X0.984 Y1.1668
X0.9811 Y1.1693
X0.9475 Y1.1966
X0.9419 Y1.2011
X0.906 Y1.2284
X0.9026 Y1.2309
X0.8667 Y1.2564
X0.8634 Y1.2587
X0.8578 Y1.2625
X0.8241 Y1.2847
X0.8185 Y1.2883
X0.7849 Y1.309
X0.7793 Y1.3124
X0.74 Y1.3349
X0.7344 Y1.338
X0.6952 Y1.3588
X0.6896 Y1.3617
X0.6503 Y1.3809
X0.6447 Y1.3835
X0.6033 Y1.4021
X0.5943 Y1.4058
X0.5606 Y1.4196
X0.555 Y1.4219
X0.5158 Y1.4365
X0.5102 Y1.4386
X0.4765 Y1.4499
X0.4653 Y1.4537
X0.4597 Y1.4554
X0.4205 Y1.4673
X0.4149 Y1.4689
X0.37 Y1.4808
X0.3644 Y1.4822
X0.3232 Y1.4917
X0.3196 Y1.4925
X0.3084 Y1.4948
X0.2747 Y1.5014
X0.2691 Y1.5024
X0.2243 Y1.5098
X0.2187 Y1.5106
X0.1738 Y1.5164
X0.1626 Y1.5176
X0.1289 Y1.5209
X0.1233 Y1.5214
X0.0841 Y1.5239
X0.0785 Y1.5243
X0.0729 Y1.5246
X0.028 Y1.5261
X0.0224 Y1.5262
X-0.0224
X-0.028 Y1.5261
X-0.0729 Y1.5246
X-0.0785 Y1.5243
X-0.1177 Y1.5217
X-0.1233 Y1.5214
X-0.1346 Y1.5203
X-0.1682 Y1.517
X-0.1738 Y1.5164
X-0.2187 Y1.5106
X-0.2243 Y1.5098
X-0.2691 Y1.5024
X-0.2747 Y1.5014
X-0.314 Y1.4937
X-0.3196 Y1.4925
X-0.3252 Y1.4913
X-0.3644 Y1.4822
X-0.3712 Y1.4805
X-0.4149 Y1.4689
X-0.4205 Y1.4673
X-0.4597 Y1.4554
X-0.4653 Y1.4537
X-0.5021 Y1.4413
X-0.5102 Y1.4386
X-0.518 Y1.4357
X-0.555 Y1.4219
X-0.5625 Y1.4189
X-0.5999 Y1.4035
X-0.6033 Y1.4021
X-0.6447 Y1.3835
X-0.6503 Y1.3809
X-0.6896 Y1.3617
X-0.6952 Y1.3588
X-0.7344 Y1.338
X-0.7402 Y1.3348
X-0.7793 Y1.3124
X-0.7905 Y1.3056
X-0.8185 Y1.2883
X-0.8246 Y1.2844
X-0.8584 Y1.262
X-0.8634 Y1.2587
X-0.8746 Y1.2508
X-0.9026 Y1.2309
X-0.906 Y1.2284
X-0.9419 Y1.2011
X-0.9497 Y1.1948
X-0.9811 Y1.1693
X-0.9867 Y1.1644
X-1.0163 Y1.1388
X-1.0204 Y1.1352
X-1.0528 Y1.1051
X-1.0586 Y1.0995
X-1.0876 Y1.0708
X-1.0933 Y1.0651
X-1.1213 Y1.0355
X-1.1243 Y1.0323
X-1.1269 Y1.0295
X-1.1549 Y0.9979
X-1.1605 Y0.9914
X-1.1886 Y0.9577
X-1.1916 Y0.9539
X-1.2177 Y0.9203
X-1.2222 Y0.9143
X-1.2464 Y0.881
X-1.2503 Y0.8754
X-1.2732 Y0.8418
X-1.2769 Y0.8362
X-1.2783 Y0.8341
X-1.3017 Y0.797
X-1.3063 Y0.7894
X-1.3287 Y0.7512
X-1.3511 Y0.71
X-1.3526 Y0.7074
X-1.3736 Y0.6656
X-1.3751 Y0.6625
X-1.3932 Y0.6233
X-1.396 Y0.6172
X-1.4128 Y0.5776
X-1.4148 Y0.5729
X-1.4299 Y0.5337
X-1.4321 Y0.5281
X-1.4341 Y0.5225
X-1.4478 Y0.4832
X-1.4497 Y0.4776
X-1.4633 Y0.4342
X-1.4653 Y0.4272
X-1.4762 Y0.388
X-1.4777 Y0.3824
X-1.4872 Y0.3432
X-1.4885 Y0.3376
X-1.4898 Y0.332
X-1.498 Y0.2928
X-1.4991 Y0.2872
X-1.5021 Y0.2703
X-1.507 Y0.2423
X-1.5081 Y0.235
X-1.5142 Y0.1919
X-1.5149 Y0.1863
X-1.5198 Y0.1415
X-1.5207 Y0.1303
X-1.5232 Y0.0967
X-1.5236 Y0.0911
X-1.5256 Y0.0462
X-1.5258 Y0.0406
X-1.5263 Y-0.0042
Y-0.0098
X-1.5254 Y-0.0546
X-1.5251 Y-0.0602
X-1.5249 Y-0.064
X-1.5227 Y-0.105
X-1.5223 Y-0.1106
X-1.5184 Y-0.1555
X-1.5178 Y-0.1611
X-1.5131 Y-0.2003
X-1.5124 Y-0.2059
X-1.5056 Y-0.2507
X-1.5047 Y-0.2563
X-1.4963 Y-0.3011
X-1.4952 Y-0.3067
X-1.4857 Y-0.3499
X-1.4839 Y-0.3571
X-1.474 Y-0.3964
X-1.4725 Y-0.402
X-1.4611 Y-0.4412
X-1.4595 Y-0.4468
X-1.4577 Y-0.4526
X-1.445 Y-0.4916
X-1.4431 Y-0.4972
X-1.4289 Y-0.5364
X-1.4269 Y-0.542
X-1.4113 Y-0.5812
X-1.409 Y-0.5869
X-1.4016 Y-0.604
X-1.3895 Y-0.6317
X-1.3842 Y-0.6429
X-1.368 Y-0.6771
X-1.3452 Y-0.7213
X-1.3231 Y-0.7609
X-1.3202 Y-0.7661
X-1.2966 Y-0.8054
X-1.2951 Y-0.8078
X-1.2713 Y-0.8446
X-1.2677 Y-0.8502
X-1.2405 Y-0.8894
X-1.2156 Y-0.923
X-1.211 Y-0.9291
X-1.2054 Y-0.9362
X-1.183 Y-0.9645
X-1.1803 Y-0.9678
X-1.1756 Y-0.9734
X-1.1493 Y-1.0044
X-1.1437 Y-1.0107
X-1.1157 Y-1.0416
X-1.1101 Y-1.0475
X-1.082 Y-1.0765
X-1.0787 Y-1.0799
X-1.0484 Y-1.1093
X-1.044 Y-1.1135
X-1.0132 Y-1.1415
X-1.0069 Y-1.1471
X-0.974 Y-1.1751
X-0.9699 Y-1.1786
X-0.9672 Y-1.1807
X-0.932 Y-1.2087
X-0.9307 Y-1.2098
X-0.8945 Y-1.2368
X-0.8914 Y-1.239
X-0.8786 Y-1.248
X-0.8522 Y-1.2663
X-0.846 Y-1.2704
X-0.8114 Y-1.2928
X-0.8073 Y-1.2954
X-0.7681 Y-1.319
X-0.7625 Y-1.3222
X-0.7232 Y-1.3442
X-0.6818 Y-1.3656
X-0.6784 Y-1.3673
X-0.635 Y-1.388
X-0.5943 Y-1.4059
X-0.5887 Y-1.4083
X-0.5438 Y-1.4262
X-0.5382 Y-1.4283
X-0.499 Y-1.4425
X-0.4934 Y-1.4444
X-0.4541 Y-1.4572
X-0.4485 Y-1.459
X-0.4149 Y-1.4688
X-0.4034 Y-1.4721
X-0.3981 Y-1.4735
X-0.3588 Y-1.4835
X-0.3532 Y-1.4849
X-0.342 Y-1.4874
X-0.3084 Y-1.4949
X-0.3027 Y-1.496
X-0.2999 Y-1.4963
X-0.2971 Y-1.4965
X-0.2943
X-0.2915 Y-1.4964
X-0.2887 Y-1.4961
X-0.2859 Y-1.4957
X-0.2835 Y-1.4951
X-0.2811 Y-1.4945
X-0.2775 Y-1.4933
X-0.2747 Y-1.4921
X-0.2719 Y-1.4907
X-0.2691 Y-1.4891
X-0.2661 Y-1.4871
X-0.2635 Y-1.4851
X-0.2614 Y-1.4833
X-0.2596 Y-1.4815
X-0.2579 Y-1.4797
X-0.2562 Y-1.4777
X-0.2541 Y-1.4749
X-0.2523 Y-1.4721
X-0.2507 Y-1.4693
X-0.2494 Y-1.4665
X-0.2483 Y-1.4637
X-0.2474 Y-1.4609
X-0.2467 Y-1.4583
X-0.2463 Y-1.4568
X-0.2461 Y-1.4553
X-0.2456 Y-1.4525
X-0.2454 Y-1.4497
X-0.2453 Y-1.4441
Y-1.2704
Y-1.2692
X-0.2451 Y-1.268
X-0.2449 Y-1.2667
X-0.2447 Y-1.2661
X-0.2448 Y-1.266
X-0.2523 Y-1.2641
X-0.2579 Y-1.2628
X-0.2971 Y-1.2541
X-0.2995 Y-1.2536
X-0.3364 Y-1.2441
X-0.3428 Y-1.2424
X-0.3756 Y-1.2328
X-0.3812 Y-1.2311
X-0.4156 Y-1.2199
X-0.4205 Y-1.2183
X-0.4541 Y-1.2061
X-0.4597 Y-1.2041
X-0.4934 Y-1.1906
X-0.499 Y-1.1883
X-0.5326 Y-1.1736
X-0.5382 Y-1.1711
X-0.5719 Y-1.155
X-0.5775 Y-1.1522
X-0.6111 Y-1.1348
X-0.6447 Y-1.1159
X-0.649 Y-1.1135
X-0.6784 Y-1.0958
X-0.684 Y-1.0924
X-0.7176 Y-1.0706
X-0.7232 Y-1.0667
X-0.7526 Y-1.0463
X-0.7849 Y-1.0223
X-0.7905 Y-1.0179
X-0.8185 Y-0.9955
X-0.8466 Y-0.9717
X-0.8511 Y-0.9678
X-0.882 Y-0.9398
X-0.9109 Y-0.9118
X-0.9138 Y-0.9088
X-0.938 Y-0.8838
X-0.9419 Y-0.8798
X-0.9687 Y-0.8502
X-0.9699 Y-0.8488
X-0.9925 Y-0.8222
X-0.9972 Y-0.8166
X-1.0204 Y-0.7873
X-1.0237 Y-0.7829
X-1.0445 Y-0.7549
X-1.0486 Y-0.7493
X-1.0708 Y-0.7173
X-1.0936 Y-0.6821
X-1.1157 Y-0.6453
X-1.1358 Y-0.6093
X-1.1549 Y-0.5721
X-1.1719 Y-0.5364
X-1.1744 Y-0.5308
X-1.1891 Y-0.4972
X-1.1913 Y-0.4916
X-1.2054 Y-0.4563
X-1.2189 Y-0.4188
X-1.2208 Y-0.4132
X-1.2317 Y-0.3796
X-1.2334 Y-0.3737
X-1.2431 Y-0.3403
X-1.2446 Y-0.3346
X-1.2531 Y-0.3011
X-1.2545 Y-0.2955
X-1.2631 Y-0.2563
X-1.2704 Y-0.2171
X-1.2713 Y-0.2115
X-1.2765 Y-0.1779
X-1.2773 Y-0.1723
X-1.2819 Y-0.133
X-1.2825 Y-0.1274
X-1.2854 Y-0.0938
X-1.2858 Y-0.0882
X-1.2879 Y-0.049
X-1.2884 Y-0.0266
X-1.2888 Y-0.0098
Y-0.0042
X-1.2884 Y0.035
X-1.2867 Y0.0743
X-1.2863 Y0.0799
X-1.2833 Y0.1191
X-1.2791 Y0.1583
X-1.2783 Y0.1645
X-1.2736 Y0.1975
X-1.2727 Y0.2035
X-1.2658 Y0.2423
X-1.2635 Y0.2535
X-1.2577 Y0.2816
X-1.2564 Y0.2872
X-1.2482 Y0.3208
X-1.2468 Y0.3264
X-1.2359 Y0.3656
X-1.2236 Y0.4048
X-1.2099 Y0.444
X-1.2054 Y0.4559
X-1.1948 Y0.4832
X-1.1925 Y0.4889
X-1.1782 Y0.5225
X-1.1605 Y0.5606
X-1.1431 Y0.5953
X-1.1401 Y0.6009
X-1.1218 Y0.6345
X-1.1021 Y0.6681
X-1.0987 Y0.6737
X-1.081 Y0.7017
X-1.0774 Y0.7074
X-1.0546 Y0.741
X-1.0301 Y0.7746
X-1.004 Y0.8082
X-0.9807 Y0.8362
X-0.9755 Y0.8423
X-0.951 Y0.8698
X-0.9475 Y0.8737
X-0.9246 Y0.8978
X-0.9191 Y0.9034
X-0.8908 Y0.9315
X-0.8606 Y0.9595
X-0.8297 Y0.9862
X-0.8282 Y0.9875
X-0.7961 Y1.0136
X-0.7641 Y1.0379
X-0.7625 Y1.0391
X-0.7288 Y1.063
X-0.6952 Y1.0853
X-0.6896 Y1.0888
X-0.6616 Y1.106
X-0.656 Y1.1094
X-0.6223 Y1.1286
X-0.5887 Y1.1465
X-0.5831 Y1.1494
X-0.5475 Y1.1668
X-0.5101 Y1.1836
X-0.499 Y1.1882
X-0.4709 Y1.1997
X-0.4317 Y1.2144
X-0.3924 Y1.2276
X-0.3868 Y1.2294
X-0.3528 Y1.2396
X-0.3476 Y1.241
X-0.3108 Y1.2508
X-0.2747 Y1.2592
X-0.2691 Y1.2604
X-0.2299 Y1.2682
X-0.2074 Y1.2719
X-0.1906 Y1.2746
X-0.185 Y1.2755
X-0.1458 Y1.2806
X-0.1064 Y1.2844
X-0.1009 Y1.2848
X-0.0673 Y1.287
X-0.0617 Y1.2874
X-0.0224 Y1.2886
X-0.0168 Y1.2887
X0.0168
X0.0224 Y1.2886
X0.0617 Y1.2874
X0.0729 Y1.2867
X0.1009 Y1.2848
X0.1065 Y1.2844
X0.1458 Y1.2806
X0.185 Y1.2755
X0.1906 Y1.2746
X0.2243 Y1.2691
X0.2299 Y1.2682
X0.2691 Y1.2604
X0.2803 Y1.2579
X0.3108 Y1.2508
X0.3476 Y1.241
X0.3532 Y1.2395
X0.39 Y1.2284
X0.3924 Y1.2276
X0.4317 Y1.2144
X0.4709 Y1.1997
X0.5046 Y1.1859
X0.5102 Y1.1836
X0.5475 Y1.1668
X0.5831 Y1.1494
X0.5887 Y1.1465
X0.6223 Y1.1286
X0.656 Y1.1094
X0.663 Y1.1051
X0.6903 Y1.0883
X0.6952 Y1.0853
X0.7288 Y1.063
X0.7625 Y1.0391
X0.7862 Y1.0211
X0.7961 Y1.0136
X0.8282 Y0.9875
X0.8354 Y0.9813
X0.8606 Y0.9595
X0.8914 Y0.9309
X0.9195 Y0.9031
X0.9251 Y0.8973
X0.9475 Y0.8737
X0.951 Y0.8698
X0.9759 Y0.8418
X0.9811 Y0.8357
X1.004 Y0.8082
X1.0301 Y0.7746
X1.0546 Y0.741
X1.0774 Y0.7074
X1.082 Y0.7001
X1.0989 Y0.6734
X1.1021 Y0.6681
X1.1218 Y0.6345
X1.1401 Y0.6009
X1.1431 Y0.5953
X1.1605 Y0.5606
X1.1782 Y0.5225
X1.1942 Y0.4848
X1.1948 Y0.4832
X1.2078 Y0.4496
X1.2099 Y0.444
X1.2236 Y0.4048
X1.2359 Y0.3656
X1.2468 Y0.3264
X1.2482 Y0.3208
X1.2564 Y0.2872
X1.2577 Y0.2816
X1.2647 Y0.2479
X1.2658 Y0.2423
X1.2727 Y0.2031
X1.2744 Y0.1919
X1.2783 Y0.1639
X1.2791 Y0.1583
X1.2833 Y0.1191
X1.2863 Y0.0799
X1.2867 Y0.0743
X1.2884 Y0.035
X1.2888 Y-0.0042
Y-0.0098
X1.2881 Y-0.0434
X1.2879 Y-0.049
X1.2858 Y-0.0882
X1.2854 Y-0.0938
X1.2825 Y-0.1274
X1.2819 Y-0.133
X1.2773 Y-0.1723
X1.2756 Y-0.1835
X1.2713 Y-0.2115
X1.2704 Y-0.2171
X1.2631 Y-0.2563
X1.2545 Y-0.2955
X1.2531 Y-0.3011
X1.2446 Y-0.3347
X1.2431 Y-0.3403
X1.2334 Y-0.374
X1.2317 Y-0.3796
X1.2208 Y-0.4132
X1.2189 Y-0.4188
X1.2054 Y-0.4563
X1.1913 Y-0.4916
X1.1891 Y-0.4972
X1.1744 Y-0.5308
X1.1717 Y-0.5367
X1.1549 Y-0.5721
X1.1358 Y-0.6093
X1.1157 Y-0.6453
X1.0936 Y-0.6821
X1.0708 Y-0.7173
X1.0484 Y-0.7496
X1.0428 Y-0.7573
X1.0237 Y-0.7829
X1.0194 Y-0.7885
X0.9972 Y-0.8166
X0.9923 Y-0.8223
X0.9699 Y-0.8488
X0.9687 Y-0.8502
X0.9419 Y-0.8798
X0.9363 Y-0.8856
X0.9138 Y-0.9088
X0.9109 Y-0.9118
X0.882 Y-0.9398
X0.8511 Y-0.9678
X0.8241 Y-0.9908
X0.8182 Y-0.9958
X0.79 Y-1.0183
X0.7849 Y-1.0223
X0.7526 Y-1.0463
X0.7204 Y-1.0687
X0.7176 Y-1.0706
X0.684 Y-1.0924
X0.6672 Y-1.1025
X0.649 Y-1.1135
X0.6447 Y-1.1159
X0.6111 Y-1.1348
X0.5764 Y-1.1527
X0.5719 Y-1.155
X0.5382 Y-1.1711
X0.5326 Y-1.1736
X0.499 Y-1.1883
X0.4901 Y-1.1919
X0.4597 Y-1.2041
X0.4485 Y-1.2082
X0.4205 Y-1.2183
X0.4149 Y-1.2202
X0.3812 Y-1.2312
X0.3756 Y-1.2328
X0.342 Y-1.2426
X0.3364 Y-1.2441
X0.2995 Y-1.2536
X0.2915 Y-1.2553
X0.2579 Y-1.2628
X0.2523 Y-1.2641
X0.2448 Y-1.266
X0.2447 Y-1.2661
X0.245 Y-1.2674
X0.2452 Y-1.2686
X0.2453 Y-1.2692
Y-1.304
Y-1.4441
X0.2454 Y-1.4497
X0.2456 Y-1.4525
X0.2461 Y-1.4553
X0.2463 Y-1.4568
X0.2467 Y-1.4583
X0.2474 Y-1.4609
X0.2483 Y-1.4637
X0.2494 Y-1.4665
X0.2507 Y-1.4693
X0.2523 Y-1.4721
X0.2541 Y-1.4749
X0.2562 Y-1.4777
X0.2579 Y-1.4797
X0.2596 Y-1.4815
X0.2614 Y-1.4833
X0.2635 Y-1.4851
X0.2661 Y-1.4871
X0.2691 Y-1.4891
X0.2719 Y-1.4907
X0.2747 Y-1.4921
X0.2775 Y-1.4933
X0.2811 Y-1.4945
X0.2835 Y-1.4951
X0.2859 Y-1.4957
X0.2887 Y-1.4961
X0.2915 Y-1.4964
X0.2943 Y-1.4965
X0.2971
X0.2999 Y-1.4963
X0.3027 Y-1.496
X0.3084 Y-1.4949
X0.3476 Y-1.4862
X0.3532 Y-1.4849
X0.3598 Y-1.4833
X0.3981 Y-1.4735
X0.4037 Y-1.472
X0.4138 Y-1.4691
G3 X0.4223 Y-1.4536 I-0.0035 J0.012
G1 X0.4215 Y-1.4509 Z0.394
X0.4208 Y-1.4484 Z0.3949
X0.4202 Y-1.4461 Z0.3964
X0.4196 Y-1.4442 Z0.3984
X0.4192 Y-1.4427 Z0.4008
X0.4189 Y-1.4419 Z0.4034
X0.4188 Y-1.4416 Z0.4062
G0 Z0.5906
X-0.5022 Y-1.9371
Z0.315
G1 Z0.2881 F30.
X-0.5021 Y-1.9368 Z0.2853
X-0.5018 Y-1.9359 Z0.2827
X-0.5015 Y-1.9345 Z0.2803
X-0.501 Y-1.9326 Z0.2783
X-0.5004 Y-1.9303 Z0.2768
X-0.4997 Y-1.9277 Z0.2759
X-0.499 Y-1.925 Z0.2756
X-0.4988 Y-1.9243
X-0.4564 Y-1.7134
G2 X-0.441 Y-1.7038 I0.0123 J-0.0025
G3 X-0.4052 Y-1.6762 I0.0072 J0.0276
G1 Y-1.6714
G3 X-0.4263 Y-1.6443 I-0.0279 J0.
G2 X-1.4834 Y0.8388 I0.4203 J1.6456
X-0.3595 Y1.6645 I1.4746 J-0.8295
X1.005 Y1.3763 I0.3569 J-1.6845
X1.6102 Y-0.5578 I-0.9897 J-1.3715
X0.4263 Y-1.6443 I-1.613 J0.5695
G3 X0.4052 Y-1.6714 I0.0069 J-0.0271
G1 Y-1.6762
G3 X0.441 Y-1.7038 I0.0285 J0.
X0.8002 Y1.5615 I-0.4459 J1.7015
X-1.1894 Y1.2878 I-0.8012 J-1.5441
X-1.6201 Y-0.6738 I1.2102 J-1.2938
X-0.441 Y-1.7038 I1.6128 J0.6564
G2 X-0.3958 Y-1.737 I-0.0187 J-0.0728
G3 X-0.3419 Y-1.7217 I0.0248 J0.0153
G1 Y-1.6399
G3 X-0.381 Y-1.5905 I-0.0508 J0.
G2 X-1.3206 Y-0.9774 I0.3805 J1.6095
X-1.6379 Y0.0988 I1.2715 J0.9597
X-1.258 Y1.0467 I1.68 J-0.1231
X-0.3949 Y1.5926 I1.2615 J-1.0393
X1.1174 Y-1.2015 I0.3996 J-1.59
X0.381 Y-1.5905 I-1.1085 J1.207
G3 X0.3419 Y-1.6399 I0.0117 J-0.0495
G1 Y-1.7541
G3 X0.3781 Y-1.7837 I0.0302 J0.
X0.6342 Y-1.7074 I-0.2902 J1.4428
X0.8759 Y-1.5932 I-0.8114 J2.0292
X0.3854 Y1.7766 I-0.8761 J1.5931
X-1.4015 Y-1.1581 I-0.3918 J-1.7728
X-0.4883 Y-1.7531 I1.4091 J1.1646
G2 X-0.4335 Y-1.7695 I-0.5964 J-2.0931
G3 X-0.3781 Y-1.7837 I0.1626 J0.5185
X-0.3419 Y-1.7541 I0.006 J0.0296
G1 Y-1.7217
G2 X-0.2936 Y-1.6492 I0.0785 J0.
G3 X-0.2453 Y-1.5767 I-0.0302 J0.0725
G1 Y-1.4842
X-0.2454
X-0.2467 Y-1.4859
X-0.2493 Y-1.4889
X-0.2523 Y-1.4919
X-0.2552 Y-1.4945
X-0.2579 Y-1.4966
X-0.2605 Y-1.4985
X-0.2635 Y-1.5004
X-0.2663 Y-1.5019
X-0.2691 Y-1.5033
X-0.2719 Y-1.5045
X-0.275 Y-1.5057
X-0.2777 Y-1.5065
X-0.2803 Y-1.5072
X-0.2831 Y-1.5079
X-0.2859 Y-1.5083
X-0.2887 Y-1.5087
X-0.2915 Y-1.5089
X-0.2943 Y-1.509
X-0.2971
X-0.2999 Y-1.5089
X-0.3027 Y-1.5086
X-0.3055 Y-1.5082
X-0.3084 Y-1.5077
X-0.3532 Y-1.4978
X-0.3588 Y-1.4964
X-0.4037 Y-1.485
X-0.4097 Y-1.4833
X-0.4485 Y-1.472
X-0.4541 Y-1.4703
X-0.5004 Y-1.4553
X-0.5468 Y-1.4385
X-0.555 Y-1.4352
X-0.5943 Y-1.4195
X-0.6391 Y-1.3999
X-0.6447 Y-1.3972
X-0.684 Y-1.3785
X-0.6896 Y-1.3756
X-0.7288 Y-1.3553
X-0.7706 Y-1.332
X-0.7737 Y-1.3302
X-0.8129 Y-1.3066
X-0.8171 Y-1.304
X-0.8578 Y-1.2776
X-0.897 Y-1.2504
X-0.9004 Y-1.248
X-0.938 Y-1.2199
X-0.9451 Y-1.2143
X-0.9755 Y-1.1901
X-0.9811 Y-1.1855
X-1.0148 Y-1.1569
X-1.0204 Y-1.1519
X-1.0503 Y-1.1247
X-1.054 Y-1.1212
X-1.0876 Y-1.0886
X-1.0908 Y-1.0855
X-1.1233 Y-1.0519
X-1.1487 Y-1.0239
X-1.1549 Y-1.0169
X-1.1587 Y-1.0127
X-1.1886 Y-0.9775
X-1.1918 Y-0.9734
X-1.2185 Y-0.9398
X-1.2228 Y-0.9342
X-1.2502 Y-0.8973
X-1.279 Y-0.8558
X-1.3063 Y-0.8135
X-1.3314 Y-0.7717
X-1.3399 Y-0.7564
X-1.3564 Y-0.7269
X-1.3792 Y-0.6827
X-1.4007 Y-0.6373
X-1.4203 Y-0.5925
X-1.4381 Y-0.5476
X-1.4408 Y-0.5403
X-1.4544 Y-0.5028
X-1.4563 Y-0.4972
X-1.4709 Y-0.4524
X-1.4725 Y-0.4468
X-1.4839 Y-0.4076
X-1.4854 Y-0.402
X-1.4969 Y-0.3568
X-1.4982 Y-0.3515
X-1.5081 Y-0.3061
X-1.5164 Y-0.2619
X-1.5174 Y-0.2563
X-1.5249 Y-0.2066
X-1.5306 Y-0.1596
X-1.531 Y-0.1555
X-1.5349 Y-0.1106
X-1.5353 Y-0.105
X-1.5377 Y-0.0602
X-1.5379 Y-0.0546
X-1.5388 Y-0.0098
Y-0.0042
X-1.5383 Y0.0406
X-1.5381 Y0.0462
X-1.5362 Y0.0913
X-1.5354 Y0.1023
X-1.5324 Y0.1415
X-1.5299 Y0.1639
X-1.5269 Y0.1919
X-1.5205 Y0.2367
X-1.5197 Y0.2423
X-1.5118 Y0.2872
X-1.5107 Y0.2928
X-1.5014 Y0.3376
X-1.5001 Y0.3432
X-1.4892 Y0.388
X-1.4767 Y0.4328
X-1.4751 Y0.4384
X-1.461 Y0.4832
X-1.4552 Y0.5001
X-1.4454 Y0.5281
X-1.4433 Y0.5337
X-1.4282 Y0.5729
X-1.426 Y0.5785
X-1.407 Y0.6233
X-1.3863 Y0.6681
X-1.3835 Y0.6737
X-1.3637 Y0.713
X-1.3607 Y0.7186
X-1.3394 Y0.7578
X-1.3163 Y0.797
X-1.313 Y0.8026
X-1.2882 Y0.8418
X-1.2839 Y0.8483
X-1.2614 Y0.8813
X-1.2577 Y0.8866
X-1.2333 Y0.9203
X-1.2292 Y0.9259
X-1.1998 Y0.9637
X-1.1987 Y0.9651
X-1.1707 Y0.9987
X-1.166 Y1.0043
X-1.1361 Y1.0379
X-1.1325 Y1.0419
X-1.1044 Y1.0715
X-1.0989 Y1.0773
X-1.0651 Y1.1107
X-1.0591 Y1.1163
X-1.0288 Y1.1444
X-1.026 Y1.1469
X-0.9902 Y1.178
X-0.9755 Y1.1899
X-0.9531 Y1.2082
X-0.9487 Y1.2116
X-0.9119 Y1.2396
X-0.904 Y1.2452
X-0.8725 Y1.2676
X-0.869 Y1.27
X-0.8297 Y1.296
X-0.8214 Y1.3012
X-0.7905 Y1.3202
X-0.7849 Y1.3236
X-0.7457 Y1.3461
X-0.74 Y1.3492
X-0.7008 Y1.37
X-0.6952 Y1.3728
X-0.656 Y1.392
X-0.6503 Y1.3947
X-0.6089 Y1.4133
X-0.6055 Y1.4147
X-0.5662 Y1.4308
X-0.5606 Y1.4331
X-0.5158 Y1.4499
X-0.5046 Y1.4537
X-0.4709 Y1.465
X-0.4653 Y1.4668
X-0.4198 Y1.4805
X-0.3756 Y1.4923
X-0.37 Y1.4937
X-0.3252 Y1.5041
X-0.3196 Y1.5053
X-0.2747 Y1.5141
X-0.2691 Y1.5151
X-0.2243 Y1.5225
X-0.1794 Y1.5283
X-0.1738 Y1.529
X-0.1289 Y1.5334
X-0.1233 Y1.5339
X-0.0785 Y1.5368
X-0.0729 Y1.5371
X-0.028 Y1.5386
X-0.0224 Y1.5387
X0.0224
X0.028 Y1.5386
X0.0729 Y1.5371
X0.0785 Y1.5368
X0.1233 Y1.5339
X0.1289 Y1.5334
X0.1738 Y1.529
X0.1906 Y1.5269
X0.2243 Y1.5225
X0.2691 Y1.5151
X0.2748 Y1.5141
X0.3196 Y1.5053
X0.3252 Y1.5041
X0.37 Y1.4937
X0.3777 Y1.4917
X0.4198 Y1.4805
X0.4653 Y1.4668
X0.4709 Y1.465
X0.5102 Y1.4518
X0.5158 Y1.4499
X0.5606 Y1.4331
X0.5719 Y1.4285
X0.6055 Y1.4147
X0.6089 Y1.4133
X0.6503 Y1.3947
X0.656 Y1.392
X0.6952 Y1.3728
X0.7008 Y1.37
X0.74 Y1.3492
X0.7458 Y1.3461
X0.7849 Y1.3236
X0.7941 Y1.318
X0.8241 Y1.2995
X0.8303 Y1.2956
X0.869 Y1.27
X0.8746 Y1.2661
X0.9082 Y1.2422
X0.9119 Y1.2396
X0.9487 Y1.2116
X0.9531 Y1.2082
X0.9867 Y1.1808
X0.9902 Y1.178
X1.026 Y1.1469
X1.0288 Y1.1444
X1.0596 Y1.1159
X1.0652 Y1.1106
X1.0991 Y1.0771
X1.1213 Y1.0537
X1.1325 Y1.0419
X1.1361 Y1.0379
X1.1661 Y1.0041
X1.1717 Y0.9974
X1.1987 Y0.9651
X1.203 Y0.9595
X1.2292 Y0.9259
X1.2374 Y0.9146
X1.2577 Y0.8866
X1.2616 Y0.881
X1.2845 Y0.8474
X1.2882 Y0.8418
X1.313 Y0.8026
X1.3175 Y0.795
X1.3394 Y0.7578
X1.3624 Y0.7156
X1.3637 Y0.713
X1.3848 Y0.6711
X1.3863 Y0.6681
X1.407 Y0.6233
X1.426 Y0.5785
X1.4412 Y0.5393
X1.4433 Y0.5337
X1.4454 Y0.5281
X1.4591 Y0.4889
X1.461 Y0.4832
X1.4751 Y0.4384
X1.4767 Y0.4328
X1.4892 Y0.388
X1.5001 Y0.3432
X1.5014 Y0.3376
X1.5107 Y0.2928
X1.5118 Y0.2872
X1.5197 Y0.2423
X1.5213 Y0.2311
X1.5269 Y0.1919
X1.5318 Y0.1471
X1.5324 Y0.1415
X1.5358 Y0.0967
X1.5362 Y0.0911
X1.5381 Y0.0462
X1.5383 Y0.0406
X1.5388 Y-0.0042
Y-0.0098
X1.5379 Y-0.0546
X1.5377 Y-0.0602
X1.5353 Y-0.105
X1.5349 Y-0.1106
X1.531 Y-0.1555
X1.5304 Y-0.1611
X1.5249 Y-0.2066
X1.5174 Y-0.2563
X1.5091 Y-0.3011
X1.508 Y-0.3067
X1.4982 Y-0.3515
X1.4968 Y-0.3571
X1.4854 Y-0.402
X1.4801 Y-0.4206
X1.4725 Y-0.4468
X1.4709 Y-0.4524
X1.4563 Y-0.4972
X1.4544 Y-0.5028
X1.4402 Y-0.542
X1.4381 Y-0.5476
X1.4203 Y-0.5925
X1.4007 Y-0.6373
X1.3792 Y-0.6827
X1.3564 Y-0.7269
X1.3343 Y-0.7665
X1.3314 Y-0.7717
X1.3063 Y-0.8135
X1.279 Y-0.8558
X1.2502 Y-0.8973
X1.2222 Y-0.935
X1.2185 Y-0.9398
X1.1918 Y-0.9734
X1.1886 Y-0.9775
X1.1587 Y-1.0127
X1.1537 Y-1.0183
X1.1269 Y-1.0479
X1.1233 Y-1.0519
X1.0908 Y-1.0855
X1.0876 Y-1.0886
X1.054 Y-1.1212
X1.0484 Y-1.1264
X1.0194 Y-1.1527
X1.0148 Y-1.1569
X0.9801 Y-1.1863
X0.9755 Y-1.1901
X0.9419 Y-1.2169
X0.938 Y-1.2199
X0.9004 Y-1.248
X0.897 Y-1.2504
X0.8578 Y-1.2776
X0.8171 Y-1.304
X0.8129 Y-1.3066
X0.7737 Y-1.3302
X0.7681 Y-1.3334
X0.7288 Y-1.3553
X0.6873 Y-1.3768
X0.684 Y-1.3785
X0.6405 Y-1.3992
X0.6391 Y-1.3999
X0.5943 Y-1.4195
X0.5494 Y-1.4374
X0.5468 Y-1.4385
X0.5004 Y-1.4553
X0.4541 Y-1.4703
X0.4429 Y-1.4736
X0.4093 Y-1.4834
X0.4037 Y-1.485
X0.3588 Y-1.4964
X0.3532 Y-1.4978
X0.3084 Y-1.5077
X0.3055 Y-1.5082
X0.3027 Y-1.5086
X0.2999 Y-1.5089
X0.2971 Y-1.509
X0.2943
X0.2915 Y-1.5089
X0.2887 Y-1.5087
X0.2859 Y-1.5083
X0.2831 Y-1.5079
X0.2803 Y-1.5072
X0.2777 Y-1.5065
X0.2747 Y-1.5056
X0.2719 Y-1.5045
X0.2691 Y-1.5033
X0.2663 Y-1.5019
X0.263 Y-1.5001
X0.2605 Y-1.4985
X0.2579 Y-1.4966
X0.2552 Y-1.4945
X0.2523 Y-1.4919
X0.2493 Y-1.4889
X0.2467 Y-1.4859
X0.2454 Y-1.4842
X0.2453
Y-1.797
X0.2454 Y-1.8026
X0.2459 Y-1.8082
X0.2464 Y-1.8138
X0.2467 Y-1.8155
X0.2475 Y-1.8194
X0.2491 Y-1.825
X0.2508 Y-1.8306
X0.2523 Y-1.8345
X0.2531 Y-1.8362
X0.256 Y-1.8418
X0.2579 Y-1.8455
X0.259 Y-1.8474
X0.2609 Y-1.8502
X0.263 Y-1.853
X0.2675 Y-1.8586
X0.2691 Y-1.8605
X0.2708 Y-1.8624
X0.2727 Y-1.8642
X0.2747 Y-1.866
X0.2803 Y-1.8707
X0.2831 Y-1.8728
X0.2859 Y-1.8747
X0.2871 Y-1.8755
X0.2915 Y-1.8779
X0.2974 Y-1.8811
X0.3001 Y-1.8823
X0.3027 Y-1.8833
X0.3084 Y-1.8851
X0.314 Y-1.8868
X0.3168 Y-1.8874
X0.3196 Y-1.8879
X0.3252 Y-1.8885
X0.3308 Y-1.8891
X0.3336 Y-1.8892
X0.3364
X0.342 Y-1.8887
X0.3476 Y-1.8882
X0.3532 Y-1.8873
X0.4037 Y-1.8771
X0.4112 Y-1.8755
X0.4541 Y-1.8655
X0.4597 Y-1.8642
X0.4653 Y-1.8628
X0.5102 Y-1.851
X0.5158 Y-1.8495
X0.5662 Y-1.8347
X0.5719 Y-1.8329
X0.6167 Y-1.8183
X0.6223 Y-1.8164
X0.6672 Y-1.8004
X0.6728 Y-1.7983
X0.684 Y-1.794
X0.7232 Y-1.7786
X0.7344 Y-1.7739
X0.7737 Y-1.7573
X0.7793 Y-1.7548
X0.8241 Y-1.7342
X0.8297 Y-1.7315
X0.8746 Y-1.7093
X0.8802 Y-1.7064
X0.9251 Y-1.6825
X0.9701 Y-1.657
X0.9755 Y-1.6538
X1.0204 Y-1.6265
X1.026 Y-1.6229
X1.0652 Y-1.5975
X1.0685 Y-1.5953
X1.1101 Y-1.5666
X1.1157 Y-1.5626
X1.1551 Y-1.5337
X1.1605 Y-1.5296
X1.1998 Y-1.499
X1.2054 Y-1.4945
X1.2446 Y-1.462
X1.2524 Y-1.4553
X1.2843 Y-1.4272
X1.2905 Y-1.4216
X1.3266 Y-1.388
X1.3324 Y-1.3824
X1.3624 Y-1.3529
X1.368 Y-1.3473
X1.3736 Y-1.3415
X1.4041 Y-1.3096
X1.4072 Y-1.3063
X1.4408 Y-1.269
X1.4446 Y-1.2648
X1.478 Y-1.2256
X1.4801 Y-1.2231
X1.5141 Y-1.1807
X1.5226 Y-1.1695
X1.548 Y-1.1359
X1.576 Y-1.0967
X1.581 Y-1.0895
X1.6099 Y-1.0463
X1.6146 Y-1.0389
X1.6382 Y-1.0014
X1.6427 Y-0.9941
X1.668 Y-0.951
X1.6711 Y-0.9454
X1.6958 Y-0.9006
X1.7216 Y-0.8502
X1.7436 Y-0.804
X1.7456 Y-0.7998
X1.7678 Y-0.7493
X1.7883 Y-0.6989
X1.7905 Y-0.6933
X1.8072 Y-0.6485
X1.8092 Y-0.6429
X1.8245 Y-0.5981
X1.8264 Y-0.5925
X1.8419 Y-0.542
X1.8436 Y-0.5364
X1.856 Y-0.4916
X1.8575 Y-0.486
X1.8603 Y-0.4748
X1.87 Y-0.4356
X1.8713 Y-0.43
X1.8822 Y-0.3796
X1.8833 Y-0.374
X1.8916 Y-0.3291
X1.8926 Y-0.3235
X1.8935 Y-0.3179
X1.9006 Y-0.2726
X1.9013 Y-0.2675
X1.9035 Y-0.2507
X1.9077 Y-0.2171
X1.9084 Y-0.2115
X1.9133 Y-0.1611
X1.9137 Y-0.1555
X1.9172 Y-0.105
X1.9175 Y-0.0994
X1.9194 Y-0.049
X1.9196 Y-0.0434
X1.92 Y0.007
Y0.0126
X1.919 Y0.0631
X1.9188 Y0.0687
X1.9164 Y0.1191
X1.916 Y0.1247
X1.912 Y0.1751
X1.9115 Y0.1807
X1.9062 Y0.2304
X1.9054 Y0.2367
X1.8993 Y0.2816
X1.8985 Y0.2872
X1.8957 Y0.304
X1.8901 Y0.3376
X1.8891 Y0.3432
X1.8793 Y0.3936
X1.8781 Y0.3992
X1.8669 Y0.4484
X1.8653 Y0.4552
X1.8538 Y0.5001
X1.8523 Y0.5057
X1.8458 Y0.5281
X1.8378 Y0.5561
X1.836 Y0.5617
X1.8217 Y0.6065
X1.8199 Y0.6121
X1.8109 Y0.6377
X1.8021 Y0.6625
X1.7979 Y0.6737
X1.7828 Y0.713
X1.7805 Y0.7186
X1.7604 Y0.7666
X1.738 Y0.8161
X1.7364 Y0.8194
X1.7145 Y0.8642
X1.7117 Y0.8698
X1.6875 Y0.9159
X1.6851 Y0.9203
X1.6599 Y0.9651
X1.6315 Y1.0124
X1.6295 Y1.0155
X1.6034 Y1.0562
X1.6007 Y1.0603
X1.5866 Y1.081
X1.5701 Y1.1051
X1.5642 Y1.1134
X1.5376 Y1.15
X1.5306 Y1.1592
X1.5074 Y1.1892
X1.5025 Y1.1954
X1.4939 Y1.206
X1.4689 Y1.2365
X1.4633 Y1.2431
X1.4322 Y1.2788
X1.4296 Y1.2817
X1.396 Y1.3182
X1.3904 Y1.3241
X1.3568 Y1.3586
X1.3525 Y1.3629
X1.3175 Y1.3967
X1.3118 Y1.4021
X1.2727 Y1.4377
X1.2334 Y1.4715
X1.2293 Y1.4749
X1.1942 Y1.5034
X1.1878 Y1.5085
X1.1806 Y1.5141
X1.1493 Y1.538
X1.1437 Y1.5422
X1.1325 Y1.5504
X1.1045 Y1.5705
X1.0971 Y1.5758
X1.054 Y1.6049
X1.0471 Y1.6094
X1.0092 Y1.6334
X1.0028 Y1.6374
X0.9587 Y1.6636
X0.9531 Y1.6668
X0.9082 Y1.6917
X0.8617 Y1.7158
X0.8578 Y1.7178
X0.8129 Y1.7394
X0.8073 Y1.7421
X0.7625 Y1.7621
X0.7569 Y1.7646
X0.712 Y1.7831
X0.7064 Y1.7854
X0.656 Y1.8045
X0.6503 Y1.8065
X0.6049 Y1.8223
X0.5999 Y1.8239
X0.5517 Y1.8391
X0.5438 Y1.8414
X0.499 Y1.8541
X0.4921 Y1.8559
X0.4429 Y1.8683
X0.4373 Y1.8696
X0.3924 Y1.8795
X0.3868 Y1.8807
X0.3756 Y1.8828
X0.3364 Y1.8903
X0.3308 Y1.8913
X0.2803 Y1.8995
X0.2747 Y1.9003
X0.2243 Y1.9069
X0.2187 Y1.9075
X0.1682 Y1.9127
X0.157 Y1.9135
X0.1121 Y1.9168
X0.0953 Y1.9176
X0.0561 Y1.9193
X0. Y1.9201
X-0.0561 Y1.9193
X-0.1065 Y1.9171
X-0.1121 Y1.9168
X-0.1626 Y1.9131
X-0.1682 Y1.9127
X-0.2187 Y1.9075
X-0.2243 Y1.9069
X-0.2747 Y1.9003
X-0.2803 Y1.8995
X-0.3308 Y1.8913
X-0.3364 Y1.8903
X-0.3812 Y1.8818
X-0.3868 Y1.8807
X-0.3924 Y1.8795
X-0.4373 Y1.8696
X-0.4429 Y1.8683
X-0.4934 Y1.8556
X-0.499 Y1.8541
X-0.5438 Y1.8414
X-0.5517 Y1.8391
X-0.5999 Y1.8239
X-0.6055 Y1.8221
X-0.6534 Y1.8055
X-0.656 Y1.8045
X-0.7064 Y1.7854
X-0.7257 Y1.7775
X-0.7569 Y1.7646
X-0.7658 Y1.7606
X-0.8073 Y1.7421
X-0.8154 Y1.7382
X-0.8578 Y1.7178
X-0.8634 Y1.7149
X-0.9082 Y1.6917
X-0.9531 Y1.6668
X-0.9587 Y1.6636
X-1.0035 Y1.6369
X-1.0092 Y1.6334
X-1.0484 Y1.6085
X-1.054 Y1.6049
X-1.0971 Y1.5758
X-1.1101 Y1.5665
X-1.1381 Y1.5463
X-1.1438 Y1.5421
X-1.1605 Y1.5294
X-1.183 Y1.5123
X-1.1886 Y1.5079
X-1.2054 Y1.4943
X-1.2293 Y1.4749
X-1.2334 Y1.4715
X-1.2727 Y1.4377
X-1.3119 Y1.4019
X-1.3177 Y1.3965
X-1.3525 Y1.3629
X-1.3581 Y1.3573
X-1.3909 Y1.3236
X-1.3962 Y1.318
X-1.4296 Y1.2817
X-1.4322 Y1.2788
X-1.4663 Y1.2396
X-1.4689 Y1.2365
X-1.4985 Y1.2004
X-1.503 Y1.1948
X-1.516 Y1.178
X-1.5362 Y1.1519
X-1.5376 Y1.15
X-1.5661 Y1.1107
X-1.5701 Y1.1051
X-1.5978 Y1.0646
X-1.6007 Y1.0603
X-1.6044 Y1.0547
X-1.6295 Y1.0155
X-1.6315 Y1.0124
X-1.6599 Y0.9651
X-1.6851 Y0.9203
X-1.6882 Y0.9146
X-1.7117 Y0.8698
X-1.7156 Y0.8621
X-1.7364 Y0.8194
X-1.738 Y0.8161
X-1.7604 Y0.7666
X-1.7805 Y0.7186
X-1.7828 Y0.7128
X-1.8 Y0.6681
X-1.8021 Y0.6625
X-1.8179 Y0.6177
X-1.8199 Y0.6121
X-1.8221 Y0.6053
X-1.836 Y0.5617
X-1.8378 Y0.5561
X-1.8507 Y0.5113
X-1.8523 Y0.5057
X-1.8538 Y0.5001
X-1.8653 Y0.4552
X-1.8669 Y0.4484
X-1.8781 Y0.3989
X-1.8793 Y0.3936
X-1.8894 Y0.342
X-1.892 Y0.3264
X-1.8976 Y0.2928
X-1.8985 Y0.2872
X-1.8993 Y0.2816
X-1.9054 Y0.2367
X-1.9062 Y0.2304
X-1.9118 Y0.1779
X-1.912 Y0.1751
X-1.916 Y0.1247
X-1.9164 Y0.1191
X-1.9188 Y0.0687
X-1.919 Y0.0631
X-1.92 Y0.0126
Y0.007
X-1.9196 Y-0.0434
X-1.9194 Y-0.049
X-1.9175 Y-0.0994
X-1.9174 Y-0.1008
X-1.9172 Y-0.105
X-1.9137 Y-0.1555
X-1.9133 Y-0.1611
X-1.9084 Y-0.2115
X-1.9077 Y-0.2171
X-1.9021 Y-0.2619
X-1.9013 Y-0.2675
X-1.9005 Y-0.2731
X-1.8935 Y-0.3179
X-1.8926 Y-0.3235
X-1.8895 Y-0.3403
X-1.8833 Y-0.374
X-1.8822 Y-0.3796
X-1.8713 Y-0.43
X-1.87 Y-0.4356
X-1.8589 Y-0.4804
X-1.8575 Y-0.486
X-1.8557 Y-0.4926
X-1.8436 Y-0.5364
X-1.8419 Y-0.542
X-1.8264 Y-0.5925
X-1.8226 Y-0.6037
X-1.8092 Y-0.6429
X-1.8072 Y-0.6485
X-1.7905 Y-0.6933
X-1.7883 Y-0.6989
X-1.7678 Y-0.7493
X-1.7456 Y-0.7998
X-1.7376 Y-0.8166
X-1.7212 Y-0.851
X-1.6958 Y-0.9006
X-1.6707 Y-0.9462
X-1.668 Y-0.951
X-1.6416 Y-0.9958
X-1.6371 Y-1.0032
X-1.6135 Y-1.0407
X-1.6099 Y-1.0463
X-1.581 Y-1.0895
X-1.5698 Y-1.1053
X-1.548 Y-1.1359
X-1.5184 Y-1.1751
X-1.5137 Y-1.1812
X-1.4801 Y-1.2231
X-1.4465 Y-1.2626
X-1.4446 Y-1.2648
X-1.4396 Y-1.2704
X-1.4072 Y-1.3063
X-1.4016 Y-1.3122
X-1.3719 Y-1.3432
X-1.3665 Y-1.3488
X-1.3551 Y-1.36
X-1.3324 Y-1.3824
X-1.3266 Y-1.388
X-1.2895 Y-1.4226
X-1.2839 Y-1.4276
X-1.2502 Y-1.4572
X-1.2446 Y-1.462
X-1.2054 Y-1.4945
X-1.1984 Y-1.5001
X-1.1605 Y-1.5296
X-1.1549 Y-1.5338
X-1.1157 Y-1.5626
X-1.109 Y-1.5673
X-1.0685 Y-1.5953
X-1.0596 Y-1.6011
X-1.0253 Y-1.6233
X-1.0204 Y-1.6265
X-0.9755 Y-1.6538
X-0.9699 Y-1.657
X-0.9251 Y-1.6825
X-0.8783 Y-1.7074
X-0.8746 Y-1.7093
X-0.8297 Y-1.7315
X-0.8241 Y-1.7342
X-0.7793 Y-1.7548
X-0.7737 Y-1.7573
X-0.7288 Y-1.7763
X-0.7232 Y-1.7786
X-0.6762 Y-1.797
X-0.6728 Y-1.7983
X-0.6609 Y-1.8026
X-0.6223 Y-1.8164
X-0.6167 Y-1.8183
X-0.5719 Y-1.8329
X-0.5662 Y-1.8347
X-0.5158 Y-1.8495
X-0.5102 Y-1.851
X-0.4653 Y-1.8628
X-0.4595 Y-1.8642
X-0.4485 Y-1.8668
X-0.4093 Y-1.8759
X-0.4037 Y-1.8771
X-0.3532 Y-1.8873
X-0.3476 Y-1.8882
X-0.342 Y-1.8887
X-0.3364 Y-1.8892
X-0.3336
X-0.3308 Y-1.8891
X-0.3252 Y-1.8885
X-0.3196 Y-1.8879
X-0.3168 Y-1.8874
X-0.314 Y-1.8868
X-0.3084 Y-1.8851
X-0.3027 Y-1.8833
X-0.3001 Y-1.8823
X-0.2971 Y-1.8809
X-0.2915 Y-1.8779
X-0.2871 Y-1.8755
X-0.2859 Y-1.8747
X-0.2831 Y-1.8728
X-0.2803 Y-1.8707
X-0.2747 Y-1.866
X-0.2727 Y-1.8642
X-0.2708 Y-1.8624
X-0.2691 Y-1.8605
X-0.2675 Y-1.8586
X-0.263 Y-1.853
X-0.2609 Y-1.8502
X-0.259 Y-1.8474
X-0.2579 Y-1.8455
X-0.256 Y-1.8418
X-0.2531 Y-1.8362
X-0.2523 Y-1.8345
X-0.2508 Y-1.8306
X-0.2491 Y-1.825
X-0.2475 Y-1.8194
X-0.2467 Y-1.8155
X-0.2464 Y-1.8138
X-0.2459 Y-1.8082
X-0.2454 Y-1.8026
X-0.2453 Y-1.797
Y-1.5767
G3 X-0.2578 Y-1.5642 I-0.0125 J0.
G18 G3 X-0.2703 Z0.2881 I0. K0.0125
G0 Z0.9843
G17

(RAMP1)
G0 X-1.5565 Y-0.1081
Z0.9843
Z0.4695
G1 Z0.3937 F30.
G3 X-1.5356 Y-0.0981 I0.0084 J0.0093
G1 X-1.5377 Y-0.0602 Z0.3936
X-1.5379 Y-0.0546
X-1.5388 Y-0.0098 Z0.3934
Y-0.0042
X-1.5383 Y0.0406 Z0.3933
X-1.5381 Y0.0462
X-1.5362 Y0.091 Z0.3931
X-1.5358 Y0.0966
X-1.5328 Y0.1358 Z0.393
X-1.5324 Y0.1414
X-1.5318 Y0.147
X-1.5275 Y0.1862 Z0.3928
X-1.5269 Y0.1918
X-1.5261 Y0.1974
X-1.5205 Y0.2366 Z0.3927
X-1.5197 Y0.2423
X-1.5167 Y0.2591 Z0.3926
X-1.5118 Y0.2871 Z0.3925
X-1.5108 Y0.2927
X-1.5014 Y0.3375 Z0.3924
X-1.5001 Y0.3431
X-1.4906 Y0.3823 Z0.3922
X-1.4892 Y0.3879
X-1.4877 Y0.3935
X-1.4767 Y0.4327 Z0.3921
X-1.4751 Y0.4383
X-1.4611 Y0.4831 Z0.3919
X-1.4592 Y0.4887
X-1.4455 Y0.5279 Z0.3918
X-1.4434 Y0.5335
X-1.4283 Y0.5727 Z0.3916
X-1.4261 Y0.5783
X-1.4235 Y0.5843
X-1.4071 Y0.6231 Z0.3915
X-1.4067 Y0.6239
X-1.4045 Y0.6287
X-1.3864 Y0.6679 Z0.3913
X-1.3843 Y0.6721
X-1.3639 Y0.7127 Z0.3912
X-1.3619 Y0.7164
X-1.3426 Y0.7519 Z0.3911
X-1.3395 Y0.7575 Z0.391
Y0.7576
X-1.3363 Y0.7631
X-1.3165 Y0.7967 Z0.3909
X-1.3132 Y0.8023
X-1.2884 Y0.8415 Z0.3907
X-1.2847 Y0.8471
X-1.261 Y0.882 Z0.3906
X-1.258 Y0.8863
X-1.233 Y0.9207 Z0.3904
X-1.2294 Y0.9255
X-1.2274 Y0.9282
X-1.2033 Y0.9591 Z0.3903
X-1.1994 Y0.9642
X-1.1989 Y0.9647
X-1.1943 Y0.9703
X-1.171 Y0.9983 Z0.3901
X-1.1663 Y1.0039
X-1.1364 Y1.0375 Z0.39
X-1.1321 Y1.0423
X-1.1041 Y1.0719 Z0.3899
X-1.0994 Y1.0767 Z0.3898
X-1.0985 Y1.0777
X-1.0649 Y1.1109 Z0.3897
X-1.0595 Y1.116
X-1.0293 Y1.144 Z0.3895
X-1.0256 Y1.1472
X-0.9907 Y1.1776 Z0.3894
X-0.9864 Y1.1811
X-0.9528 Y1.2084 Z0.3892
X-0.9493 Y1.2112
X-0.9124 Y1.2392 Z0.3891
X-0.9079 Y1.2424
X-0.8731 Y1.2672 Z0.3889
X-0.8687 Y1.2702
X-0.8295 Y1.2962 Z0.3888
X-0.8239 Y1.2997
X-0.7902 Y1.3204 Z0.3886
X-0.7857 Y1.3232
X-0.7846 Y1.3238
X-0.7454 Y1.3463 Z0.3885
X-0.7398 Y1.3493
X-0.7006 Y1.3701 Z0.3883
X-0.695 Y1.373
X-0.6557 Y1.3921 Z0.3882
X-0.6501 Y1.3948
X-0.61 Y1.4128 Z0.388
X-0.6053 Y1.4148
X-0.5661 Y1.4309 Z0.3879
X-0.5604 Y1.4332
X-0.5212 Y1.4478 Z0.3878
X-0.5156 Y1.4499 Z0.3877
X-0.51 Y1.4518
X-0.4708 Y1.4651 Z0.3876
X-0.4652 Y1.4669
X-0.4215 Y1.48 Z0.3874
X-0.4203 Y1.4804
X-0.4147 Y1.4819
X-0.3755 Y1.4923 Z0.3873
X-0.3699 Y1.4937
X-0.3251 Y1.5041 Z0.3871
X-0.3195 Y1.5053
X-0.2746 Y1.5142 Z0.387
X-0.269 Y1.5151
X-0.2298 Y1.5216 Z0.3869
X-0.2242 Y1.5225 Z0.3868
X-0.2186 Y1.5232
X-0.1793 Y1.5283 Z0.3867
X-0.1737 Y1.529
X-0.1289 Y1.5334 Z0.3865
X-0.1233 Y1.5339
X-0.0785 Y1.5368 Z0.3864
X-0.0729 Y1.5371
X-0.028 Y1.5386 Z0.3862
X-0.0224 Y1.5387
X0.0224 Z0.3861
X0.028 Y1.5386
X0.0729 Y1.5371 Z0.3859
X0.0785 Y1.5368
X0.1233 Y1.5339 Z0.3858
X0.1289 Y1.5334
X0.1737 Y1.529 Z0.3856
X0.1793 Y1.5283
X0.2186 Y1.5232 Z0.3855
X0.2242 Y1.5225
X0.2298 Y1.5216
X0.269 Y1.5151 Z0.3854
X0.2746 Y1.5142 Z0.3853
X0.3195 Y1.5053 Z0.3852
X0.3251 Y1.5041
X0.3699 Y1.4937 Z0.385
X0.3755 Y1.4923
X0.4147 Y1.4819 Z0.3849
X0.4203 Y1.4804
X0.4215 Y1.48
X0.4652 Y1.4669 Z0.3847
X0.4708 Y1.4651
X0.51 Y1.4518 Z0.3846
X0.5156 Y1.4499
X0.5324 Y1.4436 Z0.3845
X0.5604 Y1.4332 Z0.3844
X0.5661 Y1.4309
X0.6053 Y1.4148 Z0.3843
X0.61 Y1.4128
X0.6501 Y1.3948 Z0.3841
X0.6557 Y1.3921
X0.695 Y1.373 Z0.384
X0.7006 Y1.3701
X0.7398 Y1.3493 Z0.3838
X0.7454 Y1.3463
X0.7846 Y1.3238 Z0.3837
X0.7857 Y1.3232
X0.7902 Y1.3204
X0.8239 Y1.2997 Z0.3836
X0.8295 Y1.2962 Z0.3835
X0.8687 Y1.2702 Z0.3834
X0.8731 Y1.2672
X0.9079 Y1.2424 Z0.3832
X0.9124 Y1.2392
X0.9493 Y1.2112 Z0.3831
X0.9528 Y1.2084
X0.9864 Y1.1811 Z0.383
X0.9907 Y1.1776 Z0.3829
X1.0256 Y1.1472 Z0.3828
X1.0293 Y1.144
X1.0595 Y1.116 Z0.3827
X1.0649 Y1.1109 Z0.3826
X1.0985 Y1.0777 Z0.3825
X1.0994 Y1.0767
X1.1041 Y1.0719
X1.1321 Y1.0423 Z0.3823
X1.1364 Y1.0375
X1.1663 Y1.0039 Z0.3822
X1.171 Y0.9983
X1.1943 Y0.9703 Z0.3821
X1.1989 Y0.9647 Z0.382
X1.1994 Y0.9642
X1.2033 Y0.9591
X1.2274 Y0.9282 Z0.3819
X1.2294 Y0.9255
X1.233 Y0.9207
X1.258 Y0.8863 Z0.3817
X1.261 Y0.882
X1.2847 Y0.8471 Z0.3816
X1.2884 Y0.8415
X1.3132 Y0.8023 Z0.3814
X1.3165 Y0.7967
X1.3363 Y0.7631 Z0.3813
X1.3395 Y0.7576
Y0.7575
X1.3426 Y0.7519
X1.3619 Y0.7164 Z0.3811
X1.3639 Y0.7127
X1.3843 Y0.6721 Z0.381
X1.3864 Y0.6679
X1.4045 Y0.6287 Z0.3809
X1.4067 Y0.6239 Z0.3808
X1.4071 Y0.6231
X1.4237 Y0.5839 Z0.3807
X1.4261 Y0.5783
X1.4283 Y0.5727
X1.4434 Y0.5335 Z0.3805
X1.4455 Y0.5279
X1.4592 Y0.4887 Z0.3804
X1.4611 Y0.4831
X1.4751 Y0.4383 Z0.3802
X1.4767 Y0.4327
X1.4877 Y0.3935 Z0.3801
X1.4892 Y0.3879
X1.4906 Y0.3823
X1.5001 Y0.3431 Z0.38
X1.5014 Y0.3375 Z0.3799
X1.5108 Y0.2927 Z0.3798
X1.5118 Y0.2871
X1.5188 Y0.2472 Z0.3797
X1.5197 Y0.2423 Z0.3796
X1.5205 Y0.2366
X1.5261 Y0.1974 Z0.3795
X1.5269 Y0.1918
X1.5275 Y0.1862
X1.5318 Y0.147 Z0.3794
X1.5324 Y0.1414 Z0.3793
X1.5332 Y0.1302
X1.5358 Y0.0966 Z0.3792
X1.5362 Y0.091
X1.5381 Y0.0462 Z0.3791
X1.5383 Y0.0406 Z0.379
X1.5388 Y-0.0042 Z0.3789
Y-0.0098
X1.5379 Y-0.0546 Z0.3788
X1.5377 Y-0.0602 Z0.3787
X1.5353 Y-0.105 Z0.3786
X1.5349 Y-0.1106
X1.531 Y-0.1554 Z0.3784
X1.5304 Y-0.161
X1.525 Y-0.2058 Z0.3783
X1.5244 Y-0.2101
X1.5183 Y-0.2506 Z0.3782
X1.5174 Y-0.2562 Z0.3781
X1.5164 Y-0.2618
X1.5091 Y-0.301 Z0.378
X1.508 Y-0.3066
X1.4982 Y-0.3514 Z0.3779
X1.4969 Y-0.357 Z0.3778
X1.4855 Y-0.4018 Z0.3777
X1.4852 Y-0.4029
X1.4839 Y-0.4074
X1.4726 Y-0.4466 Z0.3776
X1.4709 Y-0.4522 Z0.3775
X1.4564 Y-0.497 Z0.3774
X1.4544 Y-0.5026
X1.4403 Y-0.5418 Z0.3773
X1.4382 Y-0.5474 Z0.3772
X1.4226 Y-0.5866 Z0.3771
X1.4203 Y-0.5922
X1.4179 Y-0.5978
X1.4011 Y-0.6364 Z0.3769
X1.4008 Y-0.6371
X1.3982 Y-0.6427
X1.3796 Y-0.6819 Z0.3768
X1.3787 Y-0.6836
X1.3652 Y-0.7099 Z0.3767
X1.3594 Y-0.7211
X1.3565 Y-0.7267 Z0.3766
X1.3563 Y-0.7271
X1.3534 Y-0.7323
X1.3339 Y-0.7673 Z0.3765
X1.3315 Y-0.7715
X1.3282 Y-0.7771
X1.308 Y-0.8107 Z0.3764
X1.3058 Y-0.8142 Z0.3763
X1.3045 Y-0.8163
X1.2828 Y-0.8499 Z0.3762
X1.2792 Y-0.8555
X1.2778 Y-0.8575
X1.252 Y-0.8947 Z0.3761
X1.2498 Y-0.8978 Z0.376
X1.2218 Y-0.9356 Z0.3759
X1.2188 Y-0.9395
X1.1921 Y-0.9731 Z0.3758
X1.1882 Y-0.9779 Z0.3757
X1.159 Y-1.0123 Z0.3756
X1.1545 Y-1.0174
X1.1265 Y-1.0483 Z0.3755
X1.1236 Y-1.0515 Z0.3754
X1.1209 Y-1.0543
X1.0911 Y-1.0851 Z0.3753
X1.0873 Y-1.089
X1.0566 Y-1.1187 Z0.3752
X1.0536 Y-1.1216 Z0.3751
X1.0507 Y-1.1243
X1.0199 Y-1.1523 Z0.375
X1.0144 Y-1.1572
X0.9806 Y-1.1859 Z0.3749
X0.9752 Y-1.1904 Z0.3748
X0.9416 Y-1.2172 Z0.3747
X0.9386 Y-1.2195
X0.9359 Y-1.2215
X0.901 Y-1.2475 Z0.3746
X0.8967 Y-1.2506 Z0.3745
X0.8608 Y-1.2755 Z0.3744
X0.8575 Y-1.2778
X0.8524 Y-1.2811
X0.8178 Y-1.3035 Z0.3743
X0.8127 Y-1.3068 Z0.3742
X0.779 Y-1.327 Z0.3741
X0.7734 Y-1.3304
X0.7714 Y-1.3315
X0.7314 Y-1.3539 Z0.374
X0.7286 Y-1.3555 Z0.3739
X0.6883 Y-1.3763 Z0.3738
X0.6837 Y-1.3786
X0.6416 Y-1.3987 Z0.3737
X0.6389 Y-1.4 Z0.3736
X0.5997 Y-1.4171 Z0.3735
X0.5941 Y-1.4196
X0.5902 Y-1.4211
X0.5492 Y-1.4375 Z0.3734
X0.5481 Y-1.4379 Z0.3733
X0.5436 Y-1.4396
X0.5018 Y-1.4547 Z0.3732
X0.4988 Y-1.4558
X0.454 Y-1.4704 Z0.3731
X0.4501 Y-1.4715 Z0.373
X0.4091 Y-1.4834 Z0.3729
X0.4035 Y-1.485
X0.3587 Y-1.4965 Z0.3728
X0.3531 Y-1.4978 Z0.3727
X0.3139 Y-1.5065 Z0.3726
X0.3082 Y-1.5077
X0.3054 Y-1.5082
X0.3026 Y-1.5086
X0.2998 Y-1.5089
X0.297 Y-1.509
X0.2942
X0.2914 Y-1.5089 Z0.3725
X0.2886 Y-1.5087
X0.2858 Y-1.5083
X0.283 Y-1.5078
X0.2802 Y-1.5072
X0.2774 Y-1.5064
X0.2746 Y-1.5055
X0.2735 Y-1.5052
X0.269 Y-1.5033
X0.2662 Y-1.5019
X0.2634 Y-1.5003
X0.2622 Y-1.4995
X0.2578 Y-1.4966 Z0.3724
X0.2545 Y-1.4939
X0.2522 Y-1.4918
X0.2488 Y-1.4883
X0.2466 Y-1.4857
X0.2443 Y-1.4827
X0.2426 Y-1.4801
X0.241 Y-1.4775
X0.2408 Y-1.4771
X0.2393 Y-1.4743
X0.238 Y-1.4715 Z0.3723
X0.2369 Y-1.4687
X0.2359 Y-1.4659
X0.2354 Y-1.4644
X0.2343 Y-1.4603
X0.2338 Y-1.4575
X0.2333 Y-1.4547
X0.233 Y-1.4519
X0.2328 Y-1.4491
Y-1.4435
Y0.2524 Z0.3672
X0.2327 Y0.2525
X-0.2327 Z0.3658
X-0.2328 Y0.2524
Y-1.4435 Z0.3607
Y-1.4491
X-0.233 Y-1.4519
X-0.2333 Y-1.4547
X-0.2338 Y-1.4575
X-0.2343 Y-1.4603 Z0.3606
X-0.2354 Y-1.4644
X-0.2359 Y-1.4659
X-0.2369 Y-1.4687
X-0.238 Y-1.4715
X-0.2393 Y-1.4743
X-0.2408 Y-1.4771
X-0.241 Y-1.4775
X-0.2426 Y-1.4801
X-0.2443 Y-1.4827
X-0.2466 Y-1.4857
X-0.2488 Y-1.4883 Z0.3605
X-0.2522 Y-1.4918
X-0.2545 Y-1.4939
X-0.2578 Y-1.4966
X-0.2622 Y-1.4995
X-0.2634 Y-1.5003
X-0.2662 Y-1.5019
X-0.269 Y-1.5033
X-0.2735 Y-1.5052
X-0.2746 Y-1.5055
X-0.2774 Y-1.5064 Z0.3604
X-0.2802 Y-1.5072
X-0.283 Y-1.5078
X-0.2858 Y-1.5083
X-0.2886 Y-1.5087
X-0.2914 Y-1.5089
X-0.2942 Y-1.509
X-0.297
X-0.2998 Y-1.5089
X-0.3026 Y-1.5086
X-0.3054 Y-1.5082
X-0.3082 Y-1.5077
X-0.3139 Y-1.5065 Z0.3603
X-0.3531 Y-1.4978 Z0.3602
X-0.3587 Y-1.4965
X-0.4035 Y-1.485 Z0.3601
X-0.4091 Y-1.4834 Z0.36
X-0.4501 Y-1.4715 Z0.3599
X-0.454 Y-1.4704
X-0.4988 Y-1.4558 Z0.3598
X-0.5018 Y-1.4547 Z0.3597
X-0.5436 Y-1.4396 Z0.3596
X-0.5481 Y-1.4379
X-0.5492 Y-1.4375
X-0.5902 Y-1.4211 Z0.3595
X-0.5941 Y-1.4196
X-0.5997 Y-1.4171 Z0.3594
X-0.6389 Y-1.4 Z0.3593
X-0.6416 Y-1.3987
X-0.6837 Y-1.3786 Z0.3592
X-0.6883 Y-1.3763 Z0.3591
X-0.7286 Y-1.3555 Z0.359
X-0.7314 Y-1.3539
X-0.7714 Y-1.3315 Z0.3589
X-0.7734 Y-1.3304
X-0.779 Y-1.327 Z0.3588
X-0.8127 Y-1.3068 Z0.3587
X-0.8178 Y-1.3035
X-0.8524 Y-1.2811 Z0.3586
X-0.8575 Y-1.2778
X-0.8608 Y-1.2755 Z0.3585
X-0.8967 Y-1.2506 Z0.3584
X-0.901 Y-1.2475
X-0.9359 Y-1.2215 Z0.3583
X-0.9386 Y-1.2195
X-0.9416 Y-1.2172 Z0.3582
X-0.9752 Y-1.1904 Z0.3581
X-0.9806 Y-1.1859
X-1.0144 Y-1.1572 Z0.358
X-1.0199 Y-1.1523 Z0.3579
X-1.0507 Y-1.1243 Z0.3578
X-1.0536 Y-1.1216
X-1.0566 Y-1.1187
X-1.0873 Y-1.089 Z0.3577
X-1.0911 Y-1.0851 Z0.3576
X-1.1209 Y-1.0543 Z0.3575
X-1.1236 Y-1.0515
X-1.1265 Y-1.0483
X-1.1545 Y-1.0174 Z0.3574
X-1.159 Y-1.0123 Z0.3573
X-1.1882 Y-0.9779 Z0.3572
X-1.1921 Y-0.9731
X-1.2188 Y-0.9395 Z0.3571
X-1.2218 Y-0.9356
X-1.2498 Y-0.8978 Z0.3569
X-1.252 Y-0.8947
X-1.2778 Y-0.8575 Z0.3568
X-1.2792 Y-0.8555
X-1.2828 Y-0.8499 Z0.3567
X-1.3045 Y-0.8163 Z0.3566
X-1.3058 Y-0.8142
X-1.308 Y-0.8107
X-1.3283 Y-0.7769 Z0.3565
X-1.3315 Y-0.7715
X-1.3339 Y-0.7673 Z0.3564
X-1.3534 Y-0.7323 Z0.3563
X-1.3563 Y-0.7271
X-1.3565 Y-0.7267
X-1.3594 Y-0.7211
X-1.3767 Y-0.6875 Z0.3562
X-1.3787 Y-0.6836
X-1.3796 Y-0.6819
X-1.3982 Y-0.6427 Z0.356
X-1.4008 Y-0.6371
X-1.4011 Y-0.6364
X-1.4179 Y-0.5978 Z0.3559
X-1.4203 Y-0.5922
X-1.4226 Y-0.5866 Z0.3558
X-1.4382 Y-0.5474 Z0.3557
X-1.4403 Y-0.5418
X-1.4544 Y-0.5026 Z0.3556
X-1.4564 Y-0.497
X-1.4709 Y-0.4522 Z0.3554
X-1.4726 Y-0.4466
X-1.4839 Y-0.4074 Z0.3553
X-1.4852 Y-0.4029
X-1.4855 Y-0.4018
X-1.4969 Y-0.357 Z0.3551
X-1.4982 Y-0.3514
X-1.508 Y-0.3066 Z0.355
X-1.5091 Y-0.301 Z0.3549
X-1.5164 Y-0.2618 Z0.3548
X-1.5174 Y-0.2562
X-1.5183 Y-0.2506
X-1.5244 Y-0.2101 Z0.3547
X-1.525 Y-0.2058
X-1.5304 Y-0.161 Z0.3545
X-1.531 Y-0.1554
X-1.5349 Y-0.1106 Z0.3544
X-1.5353 Y-0.105
X-1.5356 Y-0.0981 Z0.3543
X-1.5378 Y-0.0586 Z0.3542
X-1.538 Y-0.0486
X-1.5388 Y-0.009 Z0.3541
Y0.0009 Z0.354
X-1.5383 Y0.0406 Z0.3539
X-1.5379 Y0.0505
X-1.5362 Y0.0901 Z0.3538
X-1.5355 Y0.1 Z0.3537
X-1.5325 Y0.1395 Z0.3536
X-1.5315 Y0.1494
X-1.5272 Y0.1888 Z0.3535
X-1.5259 Y0.1986 Z0.3534
X-1.5203 Y0.2379 Z0.3533
X-1.5187 Y0.2476
X-1.5119 Y0.2867 Z0.3532
X-1.51 Y0.2964 Z0.3531
X-1.5019 Y0.3352 Z0.353
X-1.4997 Y0.3449
X-1.4903 Y0.3834 Z0.3529
X-1.4878 Y0.393 Z0.3528
X-1.4772 Y0.4312 Z0.3527
X-1.4744 Y0.4407
X-1.4625 Y0.4785 Z0.3526
X-1.4594 Y0.488 Z0.3525
X-1.4463 Y0.5254 Z0.3524
X-1.4429 Y0.5347
X-1.4287 Y0.5717 Z0.3523
X-1.425 Y0.5809
X-1.4095 Y0.6174 Z0.3521
X-1.4055 Y0.6265
X-1.3889 Y0.6625 Z0.352
X-1.3846 Y0.6714
X-1.3668 Y0.7068 Z0.3518
X-1.3623 Y0.7157
X-1.3433 Y0.7505 Z0.3517
X-1.3386 Y0.7592
X-1.3185 Y0.7934 Z0.3515
X-1.3134 Y0.8019
X-1.2922 Y0.8354 Z0.3514
X-1.2869 Y0.8438
X-1.2814 Y0.852 Z0.3513
X-1.2647 Y0.8766 Z0.3512
X-1.2591 Y0.8848
X-1.2533 Y0.8928
X-1.2358 Y0.9169 Z0.3511
X-1.2299 Y0.9249
X-1.2239 Y0.9327 Z0.351
X-1.2056 Y0.9562 Z0.3509
X-1.1995 Y0.964
X-1.1932 Y0.9716
X-1.1679 Y1.0021 Z0.3508
X-1.1613 Y1.0095 Z0.3507
X-1.135 Y1.0392 Z0.3506
X-1.1282 Y1.0464
X-1.1009 Y1.0752 Z0.3505
X-1.0939 Y1.0822 Z0.3504
X-1.0657 Y1.1101 Z0.3503
X-1.0585 Y1.1169
X-1.0294 Y1.1438 Z0.3502
X-1.022 Y1.1504 Z0.3501
X-0.992 Y1.1764 Z0.35
X-0.9844 Y1.1827
X-0.9536 Y1.2077 Z0.3499
X-0.9458 Y1.2138 Z0.3498
X-0.9142 Y1.2378 Z0.3497
X-0.9062 Y1.2436
X-0.8739 Y1.2666 Z0.3496
X-0.8657 Y1.2722 Z0.3495
X-0.8327 Y1.2941 Z0.3494
X-0.8243 Y1.2994
X-0.7906 Y1.3202 Z0.3493
X-0.782 Y1.3253 Z0.3492
X-0.7476 Y1.345 Z0.3491
X-0.739 Y1.3498
X-0.7039 Y1.3683 Z0.349
X-0.6951 Y1.3729
X-0.6595 Y1.3903 Z0.3488
X-0.6506 Y1.3946
X-0.6144 Y1.4108 Z0.3487
X-0.6053 Y1.4148
X-0.5686 Y1.4299 Z0.3485
X-0.5594 Y1.4336
X-0.5223 Y1.4474 Z0.3484
X-0.513 Y1.4508
X-0.4754 Y1.4635 Z0.3482
X-0.466 Y1.4666
X-0.428 Y1.478 Z0.3481
X-0.4185 Y1.4809
X-0.3802 Y1.4911 Z0.3479
X-0.3706 Y1.4936
X-0.361 Y1.4958
X-0.332 Y1.5025 Z0.3478
X-0.3223 Y1.5047
X-0.3126 Y1.5067 Z0.3477
X-0.2834 Y1.5124 Z0.3476
X-0.2737 Y1.5143
X-0.2639 Y1.516
X-0.2346 Y1.5208 Z0.3475
X-0.2248 Y1.5224
X-0.215 Y1.5237 Z0.3474
X-0.1757 Y1.5288 Z0.3473
X-0.1658 Y1.5298
X-0.1263 Y1.5337 Z0.3472
X-0.1165 Y1.5344 Z0.3471
X-0.0769 Y1.5369 Z0.347
X-0.067 Y1.5373
X-0.0274 Y1.5386 Z0.3469
X-0.0174 Y1.5387 Z0.3468
X0.0222 Z0.3467
X0.0321 Y1.5385
X0.0717 Y1.5372 Z0.3466
X0.0816 Y1.5366 Z0.3465
X0.1212 Y1.5341 Z0.3464
X0.1311 Y1.5332
X0.1705 Y1.5293 Z0.3463
X0.1804 Y1.5282 Z0.3462
X0.2197 Y1.5231 Z0.3461
X0.2295 Y1.5216
X0.2686 Y1.5152 Z0.346
X0.2784 Y1.5134
X0.3173 Y1.5057 Z0.3458
X0.327 Y1.5037
X0.3656 Y1.4947 Z0.3457
X0.3752 Y1.4924
X0.4135 Y1.4822 Z0.3455
X0.4231 Y1.4795
X0.4611 Y1.4681 Z0.3454
X0.4705 Y1.4651
X0.5081 Y1.4525 Z0.3452
X0.5175 Y1.4492
X0.5546 Y1.4354 Z0.3451
X0.5639 Y1.4318
X0.6005 Y1.4168 Z0.3449
X0.6097 Y1.4129
X0.6458 Y1.3967 Z0.3448
X0.6549 Y1.3926
X0.6905 Y1.3751 Z0.3446
X0.6994 Y1.3708
X0.7344 Y1.3522 Z0.3445
X0.7432 Y1.3475
X0.7518 Y1.3426 Z0.3444
X0.7776 Y1.3278 Z0.3443
X0.7862 Y1.3229
X0.7946 Y1.3177
X0.8199 Y1.3021 Z0.3442
X0.8284 Y1.2969
X0.8366 Y1.2914 Z0.3441
X0.8614 Y1.275 Z0.344
X0.8697 Y1.2696
X0.8778 Y1.2638
X0.9101 Y1.2409 Z0.3439
X0.918 Y1.2349 Z0.3438
X0.9496 Y1.2109 Z0.3437
X0.9573 Y1.2047
X0.9881 Y1.1797 Z0.3436
X0.9956 Y1.1733 Z0.3435
X1.0256 Y1.1473 Z0.3434
X1.0329 Y1.1406
X1.062 Y1.1137 Z0.3433
X1.0691 Y1.1068 Z0.3432
X1.0973 Y1.0789 Z0.3431
X1.1042 Y1.0718
X1.1315 Y1.043 Z0.343
X1.1381 Y1.0356
X1.1645 Y1.006 Z0.3428
X1.1709 Y0.9985
X1.1962 Y0.968 Z0.3427
X1.2024 Y0.9602
X1.2268 Y0.9289 Z0.3425
X1.2327 Y0.921
X1.2561 Y0.889 Z0.3424
X1.2618 Y0.8809
X1.284 Y0.848 Z0.3422
X1.2895 Y0.8398
X1.3107 Y0.8062 Z0.3421
X1.3159 Y0.7978
X1.336 Y0.7636 Z0.3419
X1.3409 Y0.755
X1.3598 Y0.7202 Z0.3418
X1.3645 Y0.7115
X1.3823 Y0.676 Z0.3416
X1.3867 Y0.6671
X1.4034 Y0.6312 Z0.3415
X1.4075 Y0.6221
X1.423 Y0.5856 Z0.3413
X1.4268 Y0.5765
X1.4411 Y0.5395 Z0.3412
X1.4446 Y0.5303
X1.4577 Y0.4928 Z0.341
X1.461 Y0.4835
X1.4639 Y0.474
X1.4728 Y0.4456 Z0.3409
X1.4758 Y0.4362
X1.4784 Y0.4266 Z0.3408
X1.4864 Y0.398
X1.4891 Y0.3884 Z0.3407
X1.4914 Y0.3788
X1.4984 Y0.3499 Z0.3406
X1.5008 Y0.3403
X1.5028 Y0.3306 Z0.3405
X1.511 Y0.2918 Z0.3404
X1.5127 Y0.282
X1.5196 Y0.243 Z0.3403
X1.521 Y0.2331 Z0.3402
X1.5266 Y0.1939 Z0.3401
X1.5277 Y0.184
X1.532 Y0.1446 Z0.34
X1.5329 Y0.1348 Z0.3399
X1.5359 Y0.0952 Z0.3398
X1.5364 Y0.0853
X1.5382 Y0.0457 Z0.3397
X1.5384 Y0.0358
X1.5388 Y-0.0038 Z0.3395
X1.5387 Y-0.0138
X1.5379 Y-0.0534 Z0.3394
X1.5375 Y-0.0633
X1.5354 Y-0.1029 Z0.3392
X1.5347 Y-0.1128
X1.5313 Y-0.1523 Z0.3391
X1.5302 Y-0.1621
X1.5256 Y-0.2015 Z0.3389
X1.5242 Y-0.2113
X1.5183 Y-0.2505 Z0.3388
X1.5166 Y-0.2603
X1.5094 Y-0.2993 Z0.3386
X1.5075 Y-0.309
X1.499 Y-0.3477 Z0.3385
X1.4968 Y-0.3574
X1.487 Y-0.3958 Z0.3383
X1.4845 Y-0.4054
X1.4735 Y-0.4435 Z0.3382
X1.4707 Y-0.453
X1.4584 Y-0.4907 Z0.338
X1.4553 Y-0.5001
X1.4419 Y-0.5374 Z0.3379
X1.4385 Y-0.5467
X1.4238 Y-0.5836 Z0.3378
X1.4201 Y-0.5928 Z0.3377
X1.4043 Y-0.6291 Z0.3376
X1.4003 Y-0.6382
X1.396 Y-0.6472 Z0.3375
X1.3833 Y-0.674
X1.379 Y-0.683 Z0.3374
X1.3745 Y-0.6918
X1.3609 Y-0.7182 Z0.3373
X1.3563 Y-0.727
X1.3515 Y-0.7357 Z0.3372
X1.337 Y-0.7617
X1.3322 Y-0.7703 Z0.3371
X1.3271 Y-0.7788
X1.3067 Y-0.8128 Z0.337
X1.3013 Y-0.8212 Z0.3369
X1.2798 Y-0.8545 Z0.3368
X1.2742 Y-0.8627
X1.2516 Y-0.8952 Z0.3367
X1.2458 Y-0.9032
X1.2222 Y-0.9351 Z0.3365
X1.2161 Y-0.9429
X1.1914 Y-0.9739 Z0.3364
X1.1851 Y-0.9816
X1.1594 Y-1.0118 Z0.3362
X1.1529 Y-1.0192
X1.1262 Y-1.0486 Z0.3361
X1.1194 Y-1.0558
X1.0919 Y-1.0843 Z0.3359
X1.0849 Y-1.0913
X1.0564 Y-1.1189 Z0.3358
X1.0492 Y-1.1257
X1.0198 Y-1.1524 Z0.3356
X1.0124 Y-1.1589
X0.9822 Y-1.1846 Z0.3355
X0.9745 Y-1.1909
X0.9435 Y-1.2156 Z0.3353
X0.9357 Y-1.2217
X0.9039 Y-1.2454 Z0.3352
X0.8958 Y-1.2512
X0.8633 Y-1.2738 Z0.335
X0.8551 Y-1.2794
X0.8218 Y-1.3009 Z0.3349
X0.8135 Y-1.3063
X0.7795 Y-1.3267 Z0.3347
X0.771 Y-1.3318
X0.7364 Y-1.3511 Z0.3346
X0.7277 Y-1.3559
X0.6925 Y-1.3742 Z0.3345
X0.6837 Y-1.3787 Z0.3344
X0.6479 Y-1.3957 Z0.3343
X0.6389 Y-1.4
X0.6026 Y-1.4159 Z0.3342
X0.5935 Y-1.4198 Z0.3341
X0.5843 Y-1.4235
X0.5567 Y-1.4345 Z0.334
X0.5475 Y-1.4382
X0.5381 Y-1.4416 Z0.3339
X0.5102 Y-1.4517
X0.5009 Y-1.4551 Z0.3338
X0.4914 Y-1.4582
X0.4632 Y-1.4674 Z0.3337
X0.4537 Y-1.4705
X0.4442 Y-1.4732
X0.4062 Y-1.4843 Z0.3335
X0.3966 Y-1.4868
X0.3581 Y-1.4966 Z0.3334
X0.3485 Y-1.4988
X0.3098 Y-1.5074 Z0.3332
X0.3049 Y-1.5083
X0.3 Y-1.5089
X0.295 Y-1.509
X0.2901 Y-1.5088
X0.2852 Y-1.5082
X0.2803 Y-1.5072 Z0.3331
X0.2755 Y-1.5059
X0.2709 Y-1.5041
X0.2664 Y-1.502
X0.2621 Y-1.4995
X0.258 Y-1.4967
X0.2542 Y-1.4936
X0.2506 Y-1.4902 Z0.333
X0.2472 Y-1.4865
X0.2442 Y-1.4826
X0.2415 Y-1.4785
X0.2392 Y-1.4741
X0.2372 Y-1.4696
X0.2355 Y-1.4649
X0.2343 Y-1.4601 Z0.3329
X0.2334 Y-1.4552
X0.2329 Y-1.4503
X0.2328 Y-1.4453
Y0.2447 Z0.3278
Y0.2489
Y0.2514
Y0.2524
X0.2326 Y0.2525
X0.2319
X0.2306
X-0.2254 Z0.3264
X-0.2295
X-0.2327
X-0.2328 Y0.2524
Y0.2512
Y0.2499
Y-1.4451 Z0.3213
X-0.2329 Y-1.4501
X-0.2334 Y-1.455
X-0.2342 Y-1.4599
X-0.2355 Y-1.4647
X-0.2371 Y-1.4694 Z0.3212
X-0.2391 Y-1.4739
X-0.2414 Y-1.4783
X-0.2441 Y-1.4825
X-0.2471 Y-1.4864
X-0.2504 Y-1.4901
X-0.254 Y-1.4935
X-0.2579 Y-1.4966 Z0.3211
X-0.262 Y-1.4994
X-0.2662 Y-1.5019
X-0.2707 Y-1.504
X-0.2754 Y-1.5058
X-0.2801 Y-1.5072
X-0.285 Y-1.5082
X-0.2899 Y-1.5088 Z0.321
X-0.2948 Y-1.509
X-0.2998 Y-1.5089
X-0.3047 Y-1.5083
X-0.3096 Y-1.5074
X-0.3531 Y-1.4978 Z0.3208
X-0.3628 Y-1.4954
X-0.4012 Y-1.4856 Z0.3207
X-0.4107 Y-1.483
X-0.4488 Y-1.4719 Z0.3205
X-0.4583 Y-1.469
X-0.496 Y-1.4567 Z0.3204
X-0.5053 Y-1.4535
X-0.5426 Y-1.44 Z0.3202
X-0.5519 Y-1.4364
X-0.5887 Y-1.4217 Z0.3201
X-0.5979 Y-1.4179
X-0.6342 Y-1.402 Z0.32
X-0.6432 Y-1.398 Z0.3199
X-0.679 Y-1.3809 Z0.3198
X-0.6879 Y-1.3765
X-0.7231 Y-1.3583 Z0.3197
X-0.7319 Y-1.3537 Z0.3196
X-0.7665 Y-1.3343 Z0.3195
X-0.7751 Y-1.3294
X-0.809 Y-1.3089 Z0.3194
X-0.8175 Y-1.3038 Z0.3193
X-0.8508 Y-1.2822 Z0.3192
X-0.8591 Y-1.2768
X-0.8916 Y-1.2541 Z0.3191
X-0.8997 Y-1.2484 Z0.319
X-0.9315 Y-1.2248 Z0.3189
X-0.9395 Y-1.2188
X-0.9472 Y-1.2126
X-0.9705 Y-1.1941 Z0.3188
X-0.9782 Y-1.1879 Z0.3187
X-0.9858 Y-1.1815
X-1.0084 Y-1.1622 Z0.3186
X-1.016 Y-1.1558
X-1.0233 Y-1.1492
X-1.0453 Y-1.1292 Z0.3185
X-1.0527 Y-1.1225 Z0.3184
X-1.0598 Y-1.1156
X-1.0883 Y-1.088 Z0.3183
X-1.0952 Y-1.0809
X-1.1227 Y-1.0524 Z0.3181
X-1.1294 Y-1.0451
X-1.156 Y-1.0157 Z0.318
X-1.1625 Y-1.0082
X-1.1881 Y-0.9779 Z0.3178
X-1.1944 Y-0.9702
X-1.219 Y-0.9392 Z0.3177
X-1.225 Y-0.9313
X-1.2486 Y-0.8994 Z0.3175
X-1.2544 Y-0.8913
X-1.2769 Y-0.8587 Z0.3174
X-1.2824 Y-0.8505
X-1.3039 Y-0.8172 Z0.3172
X-1.3091 Y-0.8087
X-1.3296 Y-0.7748 Z0.3171
X-1.3345 Y-0.7662
X-1.3538 Y-0.7315 Z0.317
X-1.3585 Y-0.7228 Z0.3169
X-1.3767 Y-0.6876 Z0.3168
X-1.3811 Y-0.6787
X-1.3981 Y-0.6429 Z0.3167
X-1.4022 Y-0.6339 Z0.3166
X-1.4181 Y-0.5975 Z0.3165
X-1.4219 Y-0.5884
X-1.4366 Y-0.5515 Z0.3164
X-1.4401 Y-0.5423 Z0.3163
X-1.4536 Y-0.505 Z0.3162
X-1.4568 Y-0.4956
X-1.4691 Y-0.4579 Z0.3161
X-1.4721 Y-0.4485 Z0.316
X-1.483 Y-0.4104 Z0.3159
X-1.4857 Y-0.4008
X-1.4955 Y-0.3624 Z0.3158
X-1.4979 Y-0.3528 Z0.3157
X-1.5064 Y-0.3141 Z0.3156
X-1.5085 Y-0.3044
X-1.5157 Y-0.2654 Z0.3155
X-1.5175 Y-0.2556 Z0.3154
X-1.519 Y-0.2458
X-1.5235 Y-0.2164 Z0.3153
X-1.5249 Y-0.2066
X-1.5261 Y-0.1968
X-1.5296 Y-0.1673 Z0.3152
X-1.5308 Y-0.1574 Z0.3151
X-1.5317 Y-0.1475
X-1.5342 Y-0.1179 Z0.315
X-1.5351 Y-0.108
X-1.5356 Y-0.0981
Y-0.0979
X-1.5378 Y-0.0584 Z0.3148
X-1.538 Y-0.0484
X-1.5388 Y-0.0088 Z0.3147
Y0.0011
X-1.5383 Y0.0408 Z0.3145
X-1.5379 Y0.0507
X-1.5362 Y0.0903 Z0.3144
X-1.5355 Y0.1002
X-1.5325 Y0.1397 Z0.3142
X-1.5315 Y0.1496
X-1.5272 Y0.189 Z0.3141
X-1.5259 Y0.1988
X-1.5203 Y0.238 Z0.314
X-1.5187 Y0.2478 Z0.3139
X-1.5119 Y0.2869 Z0.3138
X-1.5099 Y0.2966
X-1.5018 Y0.3354 Z0.3137
X-1.4996 Y0.3451 Z0.3136
X-1.4902 Y0.3836 Z0.3135
X-1.4877 Y0.3932
X-1.4771 Y0.4314 Z0.3134
X-1.4743 Y0.4409 Z0.3133
X-1.4624 Y0.4787 Z0.3132
X-1.4593 Y0.4881
X-1.4463 Y0.5256 Z0.3131
X-1.4429 Y0.5349 Z0.313
X-1.4286 Y0.5719 Z0.3129
X-1.4249 Y0.5811
X-1.4094 Y0.6176 Z0.3128
X-1.4055 Y0.6267 Z0.3127
X-1.3888 Y0.6626 Z0.3126
X-1.3846 Y0.6716
X-1.3667 Y0.707 Z0.3125
X-1.3622 Y0.7158 Z0.3124
X-1.3433 Y0.7507 Z0.3123
X-1.3385 Y0.7593
X-1.3184 Y0.7935 Z0.3122
X-1.3133 Y0.8021 Z0.3121
X-1.2921 Y0.8356 Z0.312
X-1.2868 Y0.8439
X-1.2646 Y0.8767 Z0.3119
X-1.259 Y0.8849 Z0.3118
X-1.2532 Y0.893
X-1.2357 Y0.917 Z0.3117
X-1.2298 Y0.925
X-1.2237 Y0.9329
X-1.2055 Y0.9563 Z0.3116
X-1.1994 Y0.9641 Z0.3115
X-1.1931 Y0.9718
X-1.1677 Y1.0023 Z0.3114
X-1.1612 Y1.0097
X-1.1348 Y1.0393 Z0.3112
X-1.1281 Y1.0466
X-1.1008 Y1.0753 Z0.3111
X-1.0938 Y1.0824
X-1.0656 Y1.1102 Z0.3109
X-1.0584 Y1.117
X-1.0293 Y1.144 Z0.3108
X-1.0218 Y1.1505
X-0.9919 Y1.1765 Z0.3107
X-0.9843 Y1.1828 Z0.3106
X-0.9535 Y1.2078 Z0.3105
X-0.9457 Y1.2139
X-0.9141 Y1.2379 Z0.3104
X-0.9061 Y1.2438 Z0.3103
X-0.8738 Y1.2667 Z0.3102
X-0.8656 Y1.2723
X-0.8325 Y1.2942 Z0.3101
X-0.8241 Y1.2995 Z0.31
X-0.7904 Y1.3203 Z0.3099
X-0.7819 Y1.3254
X-0.7475 Y1.3451 Z0.3098
X-0.7388 Y1.3499 Z0.3097
X-0.7038 Y1.3684 Z0.3096
X-0.6949 Y1.373
X-0.6593 Y1.3904 Z0.3095
X-0.6504 Y1.3946 Z0.3094
X-0.6142 Y1.4109 Z0.3093
X-0.6051 Y1.4149
X-0.5685 Y1.4299 Z0.3092
X-0.5593 Y1.4336 Z0.3091
X-0.5221 Y1.4475 Z0.309
X-0.5128 Y1.4509
X-0.4752 Y1.4636 Z0.3089
X-0.4658 Y1.4667 Z0.3088
X-0.4278 Y1.4781 Z0.3087
X-0.4183 Y1.4809
X-0.38 Y1.4911 Z0.3086
X-0.3704 Y1.4936 Z0.3085
X-0.3318 Y1.5026 Z0.3084
X-0.3221 Y1.5048
X-0.3124 Y1.5067
X-0.2832 Y1.5125 Z0.3083
X-0.2735 Y1.5144 Z0.3082
X-0.2637 Y1.516
X-0.2344 Y1.5208 Z0.3081
X-0.2246 Y1.5224
X-0.2148 Y1.5237
X-0.1755 Y1.5288 Z0.3079
X-0.1656 Y1.5298
X-0.1261 Y1.5337 Z0.3078
X-0.1163 Y1.5344
X-0.0767 Y1.5369 Z0.3077
X-0.0668 Y1.5373 Z0.3076
X-0.0272 Y1.5386 Z0.3075
X-0.0173 Y1.5387
X0.0224 Z0.3074
X0.0323 Y1.5384 Z0.3073
X0.0719 Y1.5372 Z0.3072
X0.0818 Y1.5366
X0.1214 Y1.534 Z0.3071
X0.1313 Y1.5332 Z0.307
X0.1707 Y1.5293 Z0.3069
X0.1806 Y1.5282
X0.2199 Y1.523 Z0.3068
X0.2297 Y1.5216 Z0.3067
X0.2688 Y1.5152 Z0.3066
X0.2786 Y1.5134
X0.3175 Y1.5057 Z0.3065
X0.3272 Y1.5036 Z0.3064
X0.3658 Y1.4947 Z0.3063
X0.3754 Y1.4923
X0.4137 Y1.4821 Z0.3062
X0.4233 Y1.4795 Z0.3061
X0.4613 Y1.468 Z0.306
X0.4707 Y1.4651
X0.5083 Y1.4524 Z0.3059
X0.5176 Y1.4492 Z0.3058
X0.5548 Y1.4353 Z0.3057
X0.564 Y1.4317
X0.6007 Y1.4167 Z0.3056
X0.6099 Y1.4128 Z0.3055
X0.646 Y1.3966 Z0.3054
X0.655 Y1.3925
X0.6907 Y1.3751 Z0.3053
X0.6996 Y1.3707 Z0.3052
X0.7346 Y1.3521 Z0.3051
X0.7433 Y1.3474
X0.7691 Y1.3327 Z0.305
X0.7777 Y1.3277
X0.7863 Y1.3228 Z0.3049
X0.7948 Y1.3176
X0.8201 Y1.302 Z0.3048
X0.8285 Y1.2968
X0.8368 Y1.2913
X0.8616 Y1.2749 Z0.3047
X0.8699 Y1.2694
X0.878 Y1.2637 Z0.3046
X0.9103 Y1.2408 Z0.3045
X0.9182 Y1.2348
X0.9498 Y1.2108 Z0.3044
X0.9575 Y1.2046 Z0.3043
X0.9883 Y1.1796 Z0.3042
X0.9958 Y1.1731
X1.0257 Y1.1472 Z0.3041
X1.033 Y1.1405 Z0.304
X1.0621 Y1.1135 Z0.3039
X1.0692 Y1.1066
X1.0974 Y1.0787 Z0.3038
X1.1043 Y1.0716 Z0.3037
X1.1316 Y1.0428 Z0.3036
X1.1383 Y1.0355
X1.1646 Y1.0058 Z0.3035
X1.171 Y0.9983 Z0.3034
X1.1964 Y0.9678 Z0.3033
X1.2026 Y0.9601
X1.2269 Y0.9288 Z0.3032
X1.2329 Y0.9209 Z0.3031
X1.2562 Y0.8888 Z0.303
X1.2619 Y0.8807
X1.2841 Y0.8479 Z0.3029
X1.2896 Y0.8396 Z0.3028
X1.3108 Y0.8061 Z0.3027
X1.316 Y0.7976
X1.3361 Y0.7635 Z0.3026
X1.341 Y0.7548 Z0.3025
X1.3599 Y0.72 Z0.3024
X1.3646 Y0.7113
X1.3824 Y0.6759 Z0.3023
X1.3868 Y0.667 Z0.3022
X1.4035 Y0.631 Z0.3021
X1.4076 Y0.622
X1.423 Y0.5855 Z0.302
X1.4269 Y0.5763 Z0.3019
X1.4412 Y0.5393 Z0.3018
X1.4447 Y0.5301
X1.4578 Y0.4926 Z0.3017
X1.461 Y0.4833 Z0.3016
X1.4669 Y0.4644
X1.4729 Y0.4454 Z0.3015
X1.4758 Y0.436
X1.4785 Y0.4264
X1.4865 Y0.3978 Z0.3014
X1.4891 Y0.3882
X1.4915 Y0.3786 Z0.3013
X1.4985 Y0.3497 Z0.3012
X1.5008 Y0.3401
X1.5029 Y0.3304
X1.511 Y0.2916 Z0.3011
X1.5127 Y0.2818 Z0.301
X1.5196 Y0.2428 Z0.3009
X1.521 Y0.233
X1.5266 Y0.1937 Z0.3008
X1.5278 Y0.1839 Z0.3007
X1.5321 Y0.1444 Z0.3006
X1.5329 Y0.1346
X1.5359 Y0.095 Z0.3005
X1.5364 Y0.0851 Z0.3004
X1.5382 Y0.0455 Z0.3003
X1.5384 Y0.0356
X1.5388 Y-0.004 Z0.3002
X1.5387 Y-0.014 Z0.3001
X1.5379 Y-0.0536 Z0.3
X1.5375 Y-0.0635
X1.5354 Y-0.1031 Z0.2999
X1.5347 Y-0.113 Z0.2998
X1.5312 Y-0.1525 Z0.2997
X1.5302 Y-0.1623
X1.5255 Y-0.2017 Z0.2996
X1.5242 Y-0.2115 Z0.2995
X1.5182 Y-0.2507 Z0.2994
X1.5166 Y-0.2605
X1.5094 Y-0.2995 Z0.2993
X1.5074 Y-0.3092 Z0.2992
X1.4989 Y-0.3479 Z0.2991
X1.4967 Y-0.3576
X1.487 Y-0.396 Z0.299
X1.4844 Y-0.4056 Z0.2989
X1.4734 Y-0.4437 Z0.2988
X1.4706 Y-0.4532
X1.4584 Y-0.4909 Z0.2987
X1.4552 Y-0.5003 Z0.2986
X1.4418 Y-0.5376 Z0.2985
X1.4384 Y-0.5469
X1.4237 Y-0.5838 Z0.2984
X1.42 Y-0.593
X1.4042 Y-0.6293 Z0.2982
X1.4002 Y-0.6384
X1.3917 Y-0.6563 Z0.2981
X1.3832 Y-0.6742
X1.3789 Y-0.6832
X1.3744 Y-0.692 Z0.298
X1.3608 Y-0.7184 Z0.2979
X1.3562 Y-0.7272
X1.3514 Y-0.7359
X1.3369 Y-0.7618 Z0.2978
X1.3321 Y-0.7705
X1.327 Y-0.779 Z0.2977
X1.3066 Y-0.813 Z0.2976
X1.3012 Y-0.8213
X1.2797 Y-0.8546 Z0.2975
X1.2741 Y-0.8628 Z0.2974
X1.2515 Y-0.8954 Z0.2973
X1.2457 Y-0.9034
X1.222 Y-0.9352 Z0.2972
X1.2159 Y-0.943 Z0.2971
X1.1913 Y-0.9741 Z0.297
X1.1849 Y-0.9817
X1.1593 Y-1.012 Z0.2969
X1.1527 Y-1.0194 Z0.2968
X1.1261 Y-1.0488 Z0.2967
X1.1193 Y-1.056
X1.0917 Y-1.0845 Z0.2966
X1.0847 Y-1.0915 Z0.2965
X1.0562 Y-1.1191 Z0.2964
X1.049 Y-1.1258
X1.0197 Y-1.1525 Z0.2963
X1.0122 Y-1.159 Z0.2962
X0.982 Y-1.1847 Z0.2961
X0.9744 Y-1.191
X0.9434 Y-1.2157 Z0.296
X0.9355 Y-1.2218 Z0.2959
X0.9037 Y-1.2455 Z0.2958
X0.8957 Y-1.2513
X0.8631 Y-1.2739 Z0.2957
X0.8549 Y-1.2795 Z0.2956
X0.8217 Y-1.3011 Z0.2955
X0.8133 Y-1.3064
X0.7793 Y-1.3268 Z0.2954
X0.7708 Y-1.3319 Z0.2953
X0.7362 Y-1.3512 Z0.2952
X0.7275 Y-1.356
X0.6923 Y-1.3742 Z0.2951
X0.6835 Y-1.3788
X0.6477 Y-1.3958 Z0.2949
X0.6387 Y-1.4001
X0.6024 Y-1.4159 Z0.2948
X0.5933 Y-1.4199
X0.5749 Y-1.4273 Z0.2947
X0.5565 Y-1.4346 Z0.2946
X0.5473 Y-1.4383
X0.538 Y-1.4417
X0.51 Y-1.4518 Z0.2945
X0.5007 Y-1.4552
X0.4913 Y-1.4582 Z0.2944
X0.463 Y-1.4674 Z0.2943
X0.4536 Y-1.4705
X0.444 Y-1.4733
X0.406 Y-1.4844 Z0.2942
X0.3964 Y-1.4868 Z0.2941
X0.358 Y-1.4967 Z0.294
X0.3483 Y-1.4988
X0.3096 Y-1.5074 Z0.2939
X0.3047 Y-1.5083 Z0.2938
X0.2998 Y-1.5089
X0.2948 Y-1.509
X0.2899 Y-1.5088
X0.285 Y-1.5082
X0.2801 Y-1.5072
X0.2754 Y-1.5058
X0.2707 Y-1.504 Z0.2937
X0.2663 Y-1.5019
X0.262 Y-1.4994
X0.2579 Y-1.4966
X0.254 Y-1.4935
X0.2504 Y-1.4901
X0.2471 Y-1.4864
X0.2441 Y-1.4825 Z0.2936
X0.2414 Y-1.4783
X0.2391 Y-1.4739
X0.2371 Y-1.4694
X0.2355 Y-1.4647
X0.2342 Y-1.4599
X0.2334 Y-1.455
X0.2329 Y-1.4501 Z0.2935
X0.2328 Y-1.4402
Y0.2449 Z0.2885
Y0.2491 Z0.2884
Y0.2522
Y0.2523
X0.2327 Y0.2525
X0.2317
X0.2304
X-0.2256 Z0.2871
X-0.2297 Z0.287
X-0.2327
X-0.2328 Y0.2524
Y0.2518
Y0.2497
Y-1.4453 Z0.2819
X-0.2329 Y-1.4503
X-0.2334 Y-1.4552
X-0.2343 Y-1.4601
X-0.2355 Y-1.4649
X-0.2372 Y-1.4696
X-0.2392 Y-1.4741
X-0.2415 Y-1.4785 Z0.2818
X-0.2442 Y-1.4826
X-0.2472 Y-1.4865
X-0.2506 Y-1.4902
X-0.2542 Y-1.4936
X-0.258 Y-1.4967
X-0.2621 Y-1.4995
X-0.2664 Y-1.502 Z0.2817
X-0.2709 Y-1.5041
X-0.2755 Y-1.5059
X-0.2803 Y-1.5072
X-0.2852 Y-1.5082
X-0.2901 Y-1.5088
X-0.295 Y-1.509
X-0.3 Y-1.5089 Z0.2816
X-0.3049 Y-1.5083
X-0.3098 Y-1.5074
X-0.3533 Y-1.4977 Z0.2815
X-0.3629 Y-1.4954 Z0.2814
X-0.4014 Y-1.4856 Z0.2813
X-0.4109 Y-1.4829
X-0.449 Y-1.4719 Z0.2812
X-0.4585 Y-1.4689 Z0.2811
X-0.4962 Y-1.4566 Z0.281
X-0.5055 Y-1.4534
X-0.5428 Y-1.4399 Z0.2809
X-0.5521 Y-1.4364 Z0.2808
X-0.5889 Y-1.4217 Z0.2807
X-0.598 Y-1.4179
X-0.6344 Y-1.402 Z0.2806
X-0.6434 Y-1.3979
X-0.6792 Y-1.3808 Z0.2804
X-0.6881 Y-1.3764
X-0.7233 Y-1.3582 Z0.2803
X-0.732 Y-1.3536
X-0.7666 Y-1.3342 Z0.2801
X-0.7753 Y-1.3293
X-0.8092 Y-1.3088 Z0.28
X-0.8177 Y-1.3036
X-0.8509 Y-1.2821 Z0.2798
X-0.8592 Y-1.2766
X-0.8918 Y-1.254 Z0.2797
X-0.8999 Y-1.2483
X-0.9317 Y-1.2246 Z0.2795
X-0.9396 Y-1.2187
X-0.9706 Y-1.194 Z0.2794
X-0.9784 Y-1.1878
X-0.9859 Y-1.1814 Z0.2793
X-1.0086 Y-1.1621 Z0.2792
X-1.0161 Y-1.1557
X-1.0235 Y-1.149
X-1.0455 Y-1.129 Z0.2791
X-1.0528 Y-1.1224
X-1.0599 Y-1.1155 Z0.279
X-1.0884 Y-1.0879 Z0.2789
X-1.0953 Y-1.0808
X-1.1229 Y-1.0523 Z0.2788
X-1.1296 Y-1.0449 Z0.2787
X-1.1562 Y-1.0156 Z0.2786
X-1.1626 Y-1.008
X-1.1883 Y-0.9778 Z0.2785
X-1.1945 Y-0.9701 Z0.2784
X-1.2191 Y-0.939 Z0.2783
X-1.2251 Y-0.9311
X-1.2487 Y-0.8993 Z0.2782
X-1.2545 Y-0.8912 Z0.2781
X-1.277 Y-0.8586 Z0.278
X-1.2825 Y-0.8503
X-1.304 Y-0.817 Z0.2779
X-1.3092 Y-0.8086 Z0.2778
X-1.3297 Y-0.7746 Z0.2777
X-1.3346 Y-0.766
X-1.3539 Y-0.7314 Z0.2776
X-1.3586 Y-0.7226
X-1.3767 Y-0.6874 Z0.2774
X-1.3812 Y-0.6785
X-1.3982 Y-0.6427 Z0.2773
X-1.4023 Y-0.6337
X-1.4181 Y-0.5973 Z0.2771
X-1.422 Y-0.5882
X-1.4366 Y-0.5514 Z0.277
X-1.4402 Y-0.5421
X-1.4536 Y-0.5048 Z0.2768
X-1.4569 Y-0.4954
X-1.4691 Y-0.4577 Z0.2767
X-1.4721 Y-0.4483
X-1.4831 Y-0.4102 Z0.2765
X-1.4858 Y-0.4006
X-1.4955 Y-0.3622 Z0.2764
X-1.4979 Y-0.3526
X-1.5064 Y-0.3139 Z0.2762
X-1.5085 Y-0.3042
X-1.5157 Y-0.2652 Z0.2761
X-1.5175 Y-0.2554
X-1.5235 Y-0.2162 Z0.2759
X-1.525 Y-0.2064
X-1.5261 Y-0.1966
X-1.5297 Y-0.1671 Z0.2758
X-1.5308 Y-0.1572
X-1.5317 Y-0.1473 Z0.2757
X-1.5342 Y-0.1177 Z0.2756
X-1.5351 Y-0.1078
X-1.5356 Y-0.0979
X-1.5357 Y-0.0978
X-1.5377 Y-0.0602
X-1.5379 Y-0.0546
X-1.5388 Y-0.0098
Y-0.0042
X-1.5383 Y0.0406
X-1.5381 Y0.0462
X-1.5362 Y0.091
X-1.5358 Y0.0966
X-1.5328 Y0.1358
X-1.5324 Y0.1414
X-1.5318 Y0.147
X-1.5275 Y0.1862
X-1.5269 Y0.1918
X-1.5261 Y0.1974
X-1.5205 Y0.2366
X-1.5197 Y0.2423
X-1.5167 Y0.2591
X-1.5118 Y0.2871
X-1.5108 Y0.2927
X-1.5014 Y0.3375
X-1.5001 Y0.3431
X-1.4906 Y0.3823
X-1.4892 Y0.3879
X-1.4877 Y0.3935
X-1.4767 Y0.4327
X-1.4751 Y0.4383
X-1.4611 Y0.4831
X-1.4592 Y0.4887
X-1.4455 Y0.5279
X-1.4434 Y0.5335
X-1.4283 Y0.5727
X-1.4261 Y0.5783
X-1.4235 Y0.5843
X-1.4071 Y0.6231
X-1.4067 Y0.6239
X-1.4045 Y0.6287
X-1.3864 Y0.6679
X-1.3843 Y0.6721
X-1.3639 Y0.7127
X-1.3619 Y0.7164
X-1.3426 Y0.7519
X-1.3395 Y0.7575
Y0.7576
X-1.3363 Y0.7631
X-1.3165 Y0.7967
X-1.3132 Y0.8023
X-1.2884 Y0.8415
X-1.2847 Y0.8471
X-1.261 Y0.882
X-1.258 Y0.8863
X-1.233 Y0.9207
X-1.2294 Y0.9255
X-1.2274 Y0.9282
X-1.2033 Y0.9591
X-1.1994 Y0.9642
X-1.1989 Y0.9647
X-1.1943 Y0.9703
X-1.171 Y0.9983
X-1.1663 Y1.0039
X-1.1364 Y1.0375
X-1.1321 Y1.0423
X-1.1041 Y1.0719
X-1.0994 Y1.0767
X-1.0985 Y1.0777
X-1.0649 Y1.1109
X-1.0595 Y1.116
X-1.0293 Y1.144
X-1.0256 Y1.1472
X-0.9907 Y1.1776
X-0.9864 Y1.1811
X-0.9528 Y1.2084
X-0.9493 Y1.2112
X-0.9124 Y1.2392
X-0.9079 Y1.2424
X-0.8731 Y1.2672
X-0.8687 Y1.2702
X-0.8295 Y1.2962
X-0.8239 Y1.2997
X-0.7902 Y1.3204
X-0.7857 Y1.3232
X-0.7846 Y1.3238
X-0.7454 Y1.3463
X-0.7398 Y1.3493
X-0.7006 Y1.3701
X-0.695 Y1.373
X-0.6557 Y1.3921
X-0.6501 Y1.3948
X-0.61 Y1.4128
X-0.6053 Y1.4148
X-0.5661 Y1.4309
X-0.5604 Y1.4332
X-0.5212 Y1.4478
X-0.5156 Y1.4499
X-0.51 Y1.4518
X-0.4708 Y1.4651
X-0.4652 Y1.4669
X-0.4215 Y1.48
X-0.4203 Y1.4804
X-0.4147 Y1.4819
X-0.3755 Y1.4923
X-0.3699 Y1.4937
X-0.3251 Y1.5041
X-0.3195 Y1.5053
X-0.2746 Y1.5142
X-0.269 Y1.5151
X-0.2298 Y1.5216
X-0.2242 Y1.5225
X-0.2186 Y1.5232
X-0.1793 Y1.5283
X-0.1737 Y1.529
X-0.1289 Y1.5334
X-0.1233 Y1.5339
X-0.0785 Y1.5368
X-0.0729 Y1.5371
X-0.028 Y1.5386
X-0.0224 Y1.5387
X0.0224
X0.028 Y1.5386
X0.0729 Y1.5371
X0.0785 Y1.5368
X0.1233 Y1.5339
X0.1289 Y1.5334
X0.1737 Y1.529
X0.1793 Y1.5283
X0.2186 Y1.5232
X0.2242 Y1.5225
X0.2298 Y1.5216
X0.269 Y1.5151
X0.2746 Y1.5142
X0.3195 Y1.5053
X0.3251 Y1.5041
X0.3699 Y1.4937
X0.3755 Y1.4923
X0.4147 Y1.4819
X0.4203 Y1.4804
X0.4215 Y1.48
X0.4652 Y1.4669
X0.4708 Y1.4651
X0.51 Y1.4518
X0.5156 Y1.4499
X0.5324 Y1.4436
X0.5604 Y1.4332
X0.5661 Y1.4309
X0.6053 Y1.4148
X0.61 Y1.4128
X0.6501 Y1.3948
X0.6557 Y1.3921
X0.695 Y1.373
X0.7006 Y1.3701
X0.7398 Y1.3493
X0.7454 Y1.3463
X0.7846 Y1.3238
X0.7857 Y1.3232
X0.7902 Y1.3204
X0.8239 Y1.2997
X0.8295 Y1.2962
X0.8687 Y1.2702
X0.8731 Y1.2672
X0.9079 Y1.2424
X0.9124 Y1.2392
X0.9493 Y1.2112
X0.9528 Y1.2084
X0.9864 Y1.1811
X0.9907 Y1.1776
X1.0256 Y1.1472
X1.0293 Y1.144
X1.0595 Y1.116
X1.0649 Y1.1109
X1.0985 Y1.0777
X1.0994 Y1.0767
X1.1041 Y1.0719
X1.1321 Y1.0423
X1.1364 Y1.0375
X1.1663 Y1.0039
X1.171 Y0.9983
X1.1943 Y0.9703
X1.1989 Y0.9647
X1.1994 Y0.9642
X1.2033 Y0.9591
X1.2274 Y0.9282
X1.2294 Y0.9255
X1.233 Y0.9207
X1.258 Y0.8863
X1.261 Y0.882
X1.2847 Y0.8471
X1.2884 Y0.8415
X1.3132 Y0.8023
X1.3165 Y0.7967
X1.3363 Y0.7631
X1.3395 Y0.7576
Y0.7575
X1.3426 Y0.7519
X1.3619 Y0.7164
X1.3639 Y0.7127
X1.3843 Y0.6721
X1.3864 Y0.6679
X1.4045 Y0.6287
X1.4067 Y0.6239
X1.4071 Y0.6231
X1.4237 Y0.5839
X1.4261 Y0.5783
X1.4283 Y0.5727
X1.4434 Y0.5335
X1.4455 Y0.5279
X1.4592 Y0.4887
X1.4611 Y0.4831
X1.4751 Y0.4383
X1.4767 Y0.4327
X1.4877 Y0.3935
X1.4892 Y0.3879
X1.4906 Y0.3823
X1.5001 Y0.3431
X1.5014 Y0.3375
X1.5108 Y0.2927
X1.5118 Y0.2871
X1.5188 Y0.2472
X1.5197 Y0.2423
X1.5205 Y0.2366
X1.5261 Y0.1974
X1.5269 Y0.1918
X1.5275 Y0.1862
X1.5318 Y0.147
X1.5324 Y0.1414
X1.5332 Y0.1302
X1.5358 Y0.0966
X1.5362 Y0.091
X1.5381 Y0.0462
X1.5383 Y0.0406
X1.5388 Y-0.0042
Y-0.0098
X1.5379 Y-0.0546
X1.5377 Y-0.0602
X1.5353 Y-0.105
X1.5349 Y-0.1106
X1.531 Y-0.1554
X1.5304 Y-0.161
X1.525 Y-0.2058
X1.5244 Y-0.2101
X1.5183 Y-0.2506
X1.5174 Y-0.2562
X1.5164 Y-0.2618
X1.5091 Y-0.301
X1.508 Y-0.3066
X1.4982 Y-0.3514
X1.4969 Y-0.357
X1.4855 Y-0.4018
X1.4852 Y-0.4029
X1.4839 Y-0.4074
X1.4726 Y-0.4466
X1.4709 Y-0.4522
X1.4564 Y-0.497
X1.4544 Y-0.5026
X1.4403 Y-0.5418
X1.4382 Y-0.5474
X1.4226 Y-0.5866
X1.4203 Y-0.5922
X1.4179 Y-0.5978
X1.4011 Y-0.6364
X1.4008 Y-0.6371
X1.3982 Y-0.6427
X1.3796 Y-0.6819
X1.3787 Y-0.6836
X1.3652 Y-0.7099
X1.3594 Y-0.7211
X1.3565 Y-0.7267
X1.3563 Y-0.7271
X1.3534 Y-0.7323
X1.3339 Y-0.7673
X1.3315 Y-0.7715
X1.3282 Y-0.7771
X1.308 Y-0.8107
X1.3058 Y-0.8142
X1.3045 Y-0.8163
X1.2828 Y-0.8499
X1.2792 Y-0.8555
X1.2778 Y-0.8575
X1.252 Y-0.8947
X1.2498 Y-0.8978
X1.2218 Y-0.9356
X1.2188 Y-0.9395
X1.1921 Y-0.9731
X1.1882 Y-0.9779
X1.159 Y-1.0123
X1.1545 Y-1.0174
X1.1265 Y-1.0483
X1.1236 Y-1.0515
X1.1209 Y-1.0543
X1.0911 Y-1.0851
X1.0873 Y-1.089
X1.0566 Y-1.1187
X1.0536 Y-1.1216
X1.0507 Y-1.1243
X1.0199 Y-1.1523
X1.0144 Y-1.1572
X0.9806 Y-1.1859
X0.9752 Y-1.1904
X0.9416 Y-1.2172
X0.9386 Y-1.2195
X0.9359 Y-1.2215
X0.901 Y-1.2475
X0.8967 Y-1.2506
X0.8608 Y-1.2755
X0.8575 Y-1.2778
X0.8524 Y-1.2811
X0.8178 Y-1.3035
X0.8127 Y-1.3068
X0.779 Y-1.327
X0.7734 Y-1.3304
X0.7714 Y-1.3315
X0.7314 Y-1.3539
X0.7286 Y-1.3555
X0.6883 Y-1.3763
X0.6837 Y-1.3786
X0.6416 Y-1.3987
X0.6389 Y-1.4
X0.5997 Y-1.4171
X0.5941 Y-1.4196
X0.5902 Y-1.4211
X0.5492 Y-1.4375
X0.5481 Y-1.4379
X0.5436 Y-1.4396
X0.5018 Y-1.4547
X0.4988 Y-1.4558
X0.454 Y-1.4704
X0.4501 Y-1.4715
X0.4091 Y-1.4834
X0.4035 Y-1.485
X0.3587 Y-1.4965
X0.3531 Y-1.4978
X0.3139 Y-1.5065
X0.3082 Y-1.5077
X0.3054 Y-1.5082
X0.3026 Y-1.5086
X0.2998 Y-1.5089
X0.297 Y-1.509
X0.2942
X0.2914 Y-1.5089
X0.2886 Y-1.5087
X0.2858 Y-1.5083
X0.283 Y-1.5078
X0.2802 Y-1.5072
X0.2774 Y-1.5064
X0.2746 Y-1.5055
X0.2735 Y-1.5052
X0.269 Y-1.5033
X0.2662 Y-1.5019
X0.2634 Y-1.5003
X0.2622 Y-1.4995
X0.2578 Y-1.4966
X0.2545 Y-1.4939
X0.2522 Y-1.4918
X0.2488 Y-1.4883
X0.2466 Y-1.4857
X0.2443 Y-1.4827
X0.2426 Y-1.4801
X0.241 Y-1.4775
X0.2408 Y-1.4771
X0.2393 Y-1.4743
X0.238 Y-1.4715
X0.2369 Y-1.4687
X0.2359 Y-1.4659
X0.2354 Y-1.4644
X0.2343 Y-1.4603
X0.2338 Y-1.4575
X0.2333 Y-1.4547
X0.233 Y-1.4519
X0.2328 Y-1.4491
Y-1.4435
Y0.2524
X0.2327 Y0.2525
X-0.2327
X-0.2328 Y0.2524
Y-1.4435
Y-1.4491
X-0.233 Y-1.4519
X-0.2333 Y-1.4547
X-0.2338 Y-1.4575
X-0.2343 Y-1.4603
X-0.2354 Y-1.4644
X-0.2359 Y-1.4659
X-0.2369 Y-1.4687
X-0.238 Y-1.4715
X-0.2393 Y-1.4743
X-0.2408 Y-1.4771
X-0.241 Y-1.4775
X-0.2426 Y-1.4801
X-0.2443 Y-1.4827
X-0.2466 Y-1.4857
X-0.2488 Y-1.4883
X-0.2522 Y-1.4918
X-0.2545 Y-1.4939
X-0.2578 Y-1.4966
X-0.2622 Y-1.4995
X-0.2634 Y-1.5003
X-0.2662 Y-1.5019
X-0.269 Y-1.5033
X-0.2735 Y-1.5052
X-0.2746 Y-1.5055
X-0.2774 Y-1.5064
X-0.2802 Y-1.5072
X-0.283 Y-1.5078
X-0.2858 Y-1.5083
X-0.2886 Y-1.5087
X-0.2914 Y-1.5089
X-0.2942 Y-1.509
X-0.297
X-0.2998 Y-1.5089
X-0.3026 Y-1.5086
X-0.3054 Y-1.5082
X-0.3082 Y-1.5077
X-0.3139 Y-1.5065
X-0.3531 Y-1.4978
X-0.3587 Y-1.4965
X-0.4035 Y-1.485
X-0.4091 Y-1.4834
X-0.4501 Y-1.4715
X-0.454 Y-1.4704
X-0.4988 Y-1.4558
X-0.5018 Y-1.4547
X-0.5436 Y-1.4396
X-0.5481 Y-1.4379
X-0.5492 Y-1.4375
X-0.5902 Y-1.4211
X-0.5941 Y-1.4196
X-0.5997 Y-1.4171
X-0.6389 Y-1.4
X-0.6416 Y-1.3987
X-0.6837 Y-1.3786
X-0.6883 Y-1.3763
X-0.7286 Y-1.3555
X-0.7314 Y-1.3539
X-0.7714 Y-1.3315
X-0.7734 Y-1.3304
X-0.779 Y-1.327
X-0.8127 Y-1.3068
X-0.8178 Y-1.3035
X-0.8524 Y-1.2811
X-0.8575 Y-1.2778
X-0.8608 Y-1.2755
X-0.8967 Y-1.2506
X-0.901 Y-1.2475
X-0.9359 Y-1.2215
X-0.9386 Y-1.2195
X-0.9416 Y-1.2172
X-0.9752 Y-1.1904
X-0.9806 Y-1.1859
X-1.0144 Y-1.1572
X-1.0199 Y-1.1523
X-1.0507 Y-1.1243
X-1.0536 Y-1.1216
X-1.0566 Y-1.1187
X-1.0873 Y-1.089
X-1.0911 Y-1.0851
X-1.1209 Y-1.0543
X-1.1236 Y-1.0515
X-1.1265 Y-1.0483
X-1.1545 Y-1.0174
X-1.159 Y-1.0123
X-1.1882 Y-0.9779
X-1.1921 Y-0.9731
X-1.2188 Y-0.9395
X-1.2218 Y-0.9356
X-1.2498 Y-0.8978
X-1.252 Y-0.8947
X-1.2778 Y-0.8575
X-1.2792 Y-0.8555
X-1.2828 Y-0.8499
X-1.3045 Y-0.8163
X-1.3058 Y-0.8142
X-1.308 Y-0.8107
X-1.3283 Y-0.7769
X-1.3315 Y-0.7715
X-1.3339 Y-0.7673
X-1.3534 Y-0.7323
X-1.3563 Y-0.7271
X-1.3565 Y-0.7267
X-1.3594 Y-0.7211
X-1.3767 Y-0.6875
X-1.3787 Y-0.6836
X-1.3796 Y-0.6819
X-1.3982 Y-0.6427
X-1.4008 Y-0.6371
X-1.4011 Y-0.6364
X-1.4179 Y-0.5978
X-1.4203 Y-0.5922
X-1.4226 Y-0.5866
X-1.4382 Y-0.5474
X-1.4403 Y-0.5418
X-1.4544 Y-0.5026
X-1.4564 Y-0.497
X-1.4709 Y-0.4522
X-1.4726 Y-0.4466
X-1.4839 Y-0.4074
X-1.4852 Y-0.4029
X-1.4855 Y-0.4018
X-1.4969 Y-0.357
X-1.4982 Y-0.3514
X-1.508 Y-0.3066
X-1.5091 Y-0.301
X-1.5164 Y-0.2618
X-1.5174 Y-0.2562
X-1.5183 Y-0.2506
X-1.5244 Y-0.2101
X-1.525 Y-0.2058
X-1.5304 Y-0.161
X-1.531 Y-0.1554
X-1.5349 Y-0.1106
X-1.5353 Y-0.105
X-1.5356 Y-0.0981
X-1.5357 Y-0.0978
G3 X-1.5511 Y-0.0863 I-0.0125 J-0.0007
G1 X-1.6022 Y-0.099
X-1.6049 Y-0.0996 Z0.2759
X-1.6075 Y-0.1003 Z0.2768
X-1.6098 Y-0.1009 Z0.2783
X-1.6117 Y-0.1013 Z0.2803
X-1.6131 Y-0.1017 Z0.2827
X-1.614 Y-0.1019 Z0.2853
X-1.6143 Y-0.102 Z0.2881
G0 Z0.5906
X-1.9491 Y-0.1346
Z0.3514
G1 Z0.2756 F30.
G3 X-1.9284 Y-0.1243 I0.0082 J0.0094
G1 X-1.9297 Y-0.105 Z0.2755
X-1.93 Y-0.0994
X-1.9319 Y-0.049 Z0.2754
X-1.9321 Y-0.0434
X-1.9325 Y0.007 Z0.2753
Y0.0126
X-1.9315 Y0.063 Z0.2751
X-1.9313 Y0.0686
X-1.9289 Y0.119 Z0.275
X-1.9285 Y0.1246
X-1.9246 Y0.175 Z0.2749
X-1.9241 Y0.1806
X-1.9187 Y0.231 Z0.2747
X-1.918 Y0.2366
X-1.9111 Y0.2871 Z0.2746
X-1.9102 Y0.2927
X-1.9019 Y0.3431 Z0.2745
X-1.9008 Y0.3487 Z0.2744
X-1.892 Y0.3935 Z0.2743
X-1.8909 Y0.3991
X-1.8897 Y0.4047
X-1.8795 Y0.4495 Z0.2742
X-1.8782 Y0.4551
X-1.8653 Y0.5055 Z0.2741
X-1.8637 Y0.5111 Z0.274
X-1.8495 Y0.5606 Z0.2739
X-1.8492 Y0.5615
X-1.8474 Y0.5671
X-1.8327 Y0.6133 Z0.2738
X-1.8312 Y0.6175
X-1.8155 Y0.6623 Z0.2737
X-1.8135 Y0.6679 Z0.2736
X-1.8113 Y0.6735
X-1.7941 Y0.7183 Z0.2735
X-1.7934 Y0.72
X-1.7918 Y0.7239
X-1.7731 Y0.7687 Z0.2734
X-1.771 Y0.7735
X-1.7503 Y0.8191 Z0.2733
X-1.7486 Y0.823 Z0.2732
X-1.7477 Y0.8247
X-1.7259 Y0.8695 Z0.2731
X-1.7231 Y0.8751
X-1.6995 Y0.9199 Z0.273
X-1.6982 Y0.9226
X-1.6965 Y0.9255
X-1.6713 Y0.9703 Z0.2728
X-1.6701 Y0.9724
X-1.668 Y0.9759
X-1.6421 Y1.019 Z0.2727
X-1.641 Y1.0207
X-1.6123 Y1.0655 Z0.2726
X-1.6085 Y1.0712
X-1.5805 Y1.1122 Z0.2724
X-1.5778 Y1.116
X-1.5493 Y1.1552 Z0.2723
X-1.5468 Y1.1585
X-1.5451 Y1.1608
X-1.5132 Y1.2021 Z0.2722
X-1.5104 Y1.2056
X-1.4783 Y1.2448 Z0.272
X-1.474 Y1.2498
X-1.4443 Y1.284 Z0.2719
X-1.4404 Y1.2885
X-1.4394 Y1.2896
X-1.4033 Y1.3288 Z0.2718
X-1.4011 Y1.331
X-1.3651 Y1.368 Z0.2716
X-1.3619 Y1.3711
X-1.3246 Y1.4072 Z0.2715
X-1.3227 Y1.4091
X-1.3186 Y1.4128
X-1.2834 Y1.4448 Z0.2714
X-1.2817 Y1.4464
X-1.2778 Y1.4498 Z0.2713
X-1.2427 Y1.48 Z0.2712
X-1.2386 Y1.4835
X-1.236 Y1.4856
X-1.1994 Y1.5153 Z0.2711
X-1.1945 Y1.5192
X-1.1545 Y1.5498 Z0.271
X-1.1505 Y1.5528
X-1.1489 Y1.5539 Z0.2709
X-1.1097 Y1.5822 Z0.2708
X-1.1041 Y1.5861
X-1.0622 Y1.6144 Z0.2707
X-1.0592 Y1.6164
X-1.0536 Y1.62
X-1.0144 Y1.6449 Z0.2706
X-1.0094 Y1.648 Z0.2705
X-0.9696 Y1.6717 Z0.2704
X-0.964 Y1.675
X-0.9622 Y1.676
X-0.9191 Y1.6999 Z0.2703
X-0.9135 Y1.703
X-0.8684 Y1.7264 Z0.2702
X-0.8631 Y1.7291 Z0.2701
X-0.8183 Y1.7507 Z0.27
X-0.8127 Y1.7534
X-0.7678 Y1.7734 Z0.2699
X-0.7622 Y1.7759
X-0.7174 Y1.7944 Z0.2698
X-0.7118 Y1.7967 Z0.2697
X-0.7062 Y1.7989
X-0.6609 Y1.816 Z0.2696
X-0.6557 Y1.8179
X-0.6109 Y1.8334 Z0.2695
X-0.6053 Y1.8353
X-0.5548 Y1.8512 Z0.2693
X-0.5492 Y1.8528
X-0.5012 Y1.8664 Z0.2692
X-0.4988 Y1.8671
X-0.4932 Y1.8685
X-0.4484 Y1.8798 Z0.2691
X-0.4428 Y1.8812
X-0.3923 Y1.8923 Z0.2689
X-0.3867 Y1.8935
X-0.3363 Y1.9031 Z0.2688
X-0.3307 Y1.904
X-0.2802 Y1.9121 Z0.2687
X-0.2746 Y1.9129 Z0.2686
X-0.2298 Y1.9188 Z0.2685
X-0.2242 Y1.9195
X-0.2186 Y1.9201
X-0.1737 Y1.9247 Z0.2684
X-0.1681 Y1.9253
X-0.1625 Y1.9257
X-0.1177 Y1.9289 Z0.2683
X-0.1121 Y1.9293
X-0.1065 Y1.9296 Z0.2682
X-0.0616 Y1.9315 Z0.2681
X-0.056 Y1.9318
X-0.0504 Y1.9319
X-0.0056 Y1.9325 Z0.268
X0. Y1.9326
X0.0056 Y1.9325
X0.0504 Y1.9319 Z0.2679
X0.056 Y1.9318
X0.0616 Y1.9315 Z0.2678
X0.1065 Y1.9296 Z0.2677
X0.1121 Y1.9293
X0.1177 Y1.9289
X0.1625 Y1.9257 Z0.2676
X0.1681 Y1.9253
X0.1737 Y1.9247
X0.2186 Y1.9201 Z0.2675
X0.2242 Y1.9195 Z0.2674
X0.2298 Y1.9188
X0.2746 Y1.9129 Z0.2673
X0.2802 Y1.9121
X0.3307 Y1.904 Z0.2672
X0.3363 Y1.9031
X0.3867 Y1.8935 Z0.267
X0.3923 Y1.8923
X0.4428 Y1.8812 Z0.2669
X0.4484 Y1.8798
X0.4932 Y1.8685 Z0.2668
X0.4988 Y1.8671
X0.5012 Y1.8664
X0.5492 Y1.8528 Z0.2666
X0.5548 Y1.8512
X0.6053 Y1.8353 Z0.2665
X0.6109 Y1.8334
X0.6557 Y1.8179 Z0.2664
X0.6609 Y1.816
X0.7062 Y1.7989 Z0.2662
X0.7118 Y1.7967
X0.7174 Y1.7944
X0.7622 Y1.7759 Z0.2661
X0.7678 Y1.7734
X0.8127 Y1.7534 Z0.266
X0.8183 Y1.7507
X0.8631 Y1.7291 Z0.2658
X0.8684 Y1.7264
X0.9135 Y1.703 Z0.2657
X0.9191 Y1.6999
X0.9622 Y1.676 Z0.2656
X0.964 Y1.675
X0.9696 Y1.6717 Z0.2655
X1.0094 Y1.648 Z0.2654
X1.0144 Y1.6449
X1.0536 Y1.62 Z0.2653
X1.0592 Y1.6164
X1.0622 Y1.6144
X1.1041 Y1.5861 Z0.2652
X1.1097 Y1.5822 Z0.2651
X1.1489 Y1.5539 Z0.265
X1.1505 Y1.5528
X1.1545 Y1.5498
X1.1945 Y1.5192 Z0.2649
X1.1994 Y1.5153
X1.236 Y1.4856 Z0.2648
X1.2386 Y1.4835
X1.2427 Y1.48 Z0.2647
X1.2778 Y1.4498 Z0.2646
X1.2817 Y1.4464
X1.2834 Y1.4448
X1.3186 Y1.4128 Z0.2645
X1.3227 Y1.4091
X1.3246 Y1.4072
X1.3619 Y1.3711 Z0.2643
X1.3651 Y1.368
X1.4011 Y1.331 Z0.2642
X1.4033 Y1.3288
X1.4394 Y1.2896 Z0.2641
X1.4404 Y1.2885
X1.4443 Y1.284
X1.474 Y1.2498 Z0.264
X1.4783 Y1.2448 Z0.2639
X1.5104 Y1.2056 Z0.2638
X1.5132 Y1.2021
X1.5451 Y1.1608 Z0.2637
X1.5468 Y1.1585
X1.5493 Y1.1552
X1.5778 Y1.116 Z0.2635
X1.5805 Y1.1122
X1.6085 Y1.0711 Z0.2634
X1.6123 Y1.0655
X1.641 Y1.0207 Z0.2633
X1.6421 Y1.019
X1.668 Y0.9759 Z0.2631
X1.6701 Y0.9724
X1.6713 Y0.9703
X1.6965 Y0.9255 Z0.263
X1.6982 Y0.9226
X1.6995 Y0.9199
X1.7231 Y0.8751 Z0.2629
X1.7259 Y0.8695
X1.7477 Y0.8247 Z0.2627
X1.7486 Y0.823
X1.7503 Y0.8191
X1.771 Y0.7735 Z0.2626
X1.7731 Y0.7687
X1.7918 Y0.7239 Z0.2625
X1.7934 Y0.72
X1.7941 Y0.7183
X1.8113 Y0.6735 Z0.2623
X1.8135 Y0.6679
X1.8155 Y0.6623
X1.8312 Y0.6175 Z0.2622
X1.8327 Y0.6133
X1.8474 Y0.5671 Z0.2621
X1.8492 Y0.5615
X1.8495 Y0.5606 Z0.262
X1.8637 Y0.5111 Z0.2619
X1.8653 Y0.5055
X1.8782 Y0.4551 Z0.2618
X1.8795 Y0.4495
X1.8897 Y0.4047 Z0.2617
X1.8909 Y0.3991 Z0.2616
X1.892 Y0.3935
X1.9008 Y0.3487 Z0.2615
X1.9019 Y0.3431
X1.9102 Y0.2927 Z0.2614
X1.9111 Y0.2871
X1.918 Y0.2366 Z0.2613
X1.9187 Y0.231 Z0.2612
X1.9241 Y0.1806 Z0.2611
X1.9246 Y0.175
X1.9285 Y0.1246 Z0.261
X1.9289 Y0.119
X1.9313 Y0.0686 Z0.2608
X1.9315 Y0.063
X1.9325 Y0.0126 Z0.2607
Y0.007
X1.9321 Y-0.0434 Z0.2606
X1.9319 Y-0.049
X1.93 Y-0.0994 Z0.2604
X1.9297 Y-0.105
X1.9263 Y-0.1554 Z0.2603
X1.9258 Y-0.161
X1.9209 Y-0.2114 Z0.2602
X1.9203 Y-0.217
X1.914 Y-0.2674 Z0.26
X1.9132 Y-0.273
X1.9053 Y-0.3234 Z0.2599
X1.9043 Y-0.329
X1.895 Y-0.3794 Z0.2598
X1.8943 Y-0.3825
X1.8841 Y-0.4298 Z0.2596
X1.8831 Y-0.4345
X1.8829 Y-0.4354
X1.8815 Y-0.441
X1.8705 Y-0.4858 Z0.2595
X1.869 Y-0.4914
X1.855 Y-0.5418 Z0.2594
X1.8534 Y-0.5474 Z0.2593
X1.8395 Y-0.5922 Z0.2592
X1.8383 Y-0.5963
X1.8378 Y-0.5978
X1.8206 Y-0.6483 Z0.2591
X1.8186 Y-0.6539
X1.8018 Y-0.6987 Z0.259
X1.7997 Y-0.7043 Z0.2589
X1.7814 Y-0.7491 Z0.2588
X1.7791 Y-0.7547
X1.7766 Y-0.7604
X1.7594 Y-0.7995 Z0.2587
X1.7569 Y-0.8051
X1.7543 Y-0.8107
X1.7329 Y-0.8555 Z0.2585
X1.7318 Y-0.8577
X1.7094 Y-0.9015 Z0.2584
X1.7071 Y-0.9059
X1.704 Y-0.9115
X1.6813 Y-0.9528 Z0.2583
X1.6794 Y-0.9563
X1.653 Y-1.0011 Z0.2581
X1.6496 Y-1.0067
X1.625 Y-1.0459 Z0.258
X1.6215 Y-1.0515
X1.6197 Y-1.0542
X1.5915 Y-1.0963 Z0.2579
X1.5876 Y-1.1019
X1.5597 Y-1.1411 Z0.2577
X1.558 Y-1.1434
X1.5555 Y-1.1467
X1.5259 Y-1.1859 Z0.2576
X1.5244 Y-1.1879
X1.5215 Y-1.1915
X1.49 Y-1.2307 Z0.2575
X1.4853 Y-1.2363
X1.4567 Y-1.2699 Z0.2573
X1.4518 Y-1.2755
X1.4164 Y-1.3147 Z0.2572
X1.4123 Y-1.3191
X1.3787 Y-1.3542 Z0.2571
X1.3734 Y-1.3595
X1.3393 Y-1.3931 Z0.2569
X1.3339 Y-1.3984
X1.2974 Y-1.4323 Z0.2568
X1.2946 Y-1.4348
X1.2554 Y-1.4693 Z0.2567
X1.2527 Y-1.4715
X1.2121 Y-1.5052 Z0.2565
X1.2106 Y-1.5064
X1.2051 Y-1.5108
X1.1692 Y-1.5388 Z0.2564
X1.1657 Y-1.5414
X1.1617 Y-1.5444
X1.1236 Y-1.5724 Z0.2563
X1.1209 Y-1.5743
X1.1156 Y-1.578 Z0.2562
X1.0761 Y-1.6053 Z0.2561
X1.0751 Y-1.606
X1.0705 Y-1.609
X1.0312 Y-1.6344 Z0.256
X1.0256 Y-1.6379
X0.9808 Y-1.6652 Z0.2559
X0.9767 Y-1.6676 Z0.2558
X0.9359 Y-1.6907 Z0.2557
X0.9303 Y-1.6939
X0.885 Y-1.718 Z0.2556
X0.8799 Y-1.7206
X0.8351 Y-1.7428 Z0.2555
X0.8295 Y-1.7455 Z0.2554
X0.7846 Y-1.7661 Z0.2553
X0.7795 Y-1.7684
X0.7342 Y-1.7876 Z0.2552
X0.7286 Y-1.79
X0.7265 Y-1.7908
X0.6781 Y-1.8097 Z0.255
X0.6725 Y-1.8117
X0.6277 Y-1.8278 Z0.2549
X0.6221 Y-1.8297
X0.5717 Y-1.8461 Z0.2548
X0.5694 Y-1.8468
X0.5212 Y-1.8609 Z0.2546
X0.5156 Y-1.8625
X0.4652 Y-1.8757 Z0.2545
X0.4596 Y-1.8771
X0.4091 Y-1.8888 Z0.2544
X0.4035 Y-1.8899
X0.3587 Y-1.8989 Z0.2542
X0.3531 Y-1.9001
X0.3503 Y-1.9005
X0.3475 Y-1.9008
X0.3419 Y-1.9013
X0.3363 Y-1.9017
X0.3335
X0.3307 Y-1.9016
X0.3251 Y-1.9011
X0.3195 Y-1.9005 Z0.2541
X0.3167 Y-1.9001
X0.3139 Y-1.8996
X0.311 Y-1.8989
X0.3082 Y-1.8981
X0.3052 Y-1.8972
X0.3026 Y-1.8964
X0.297 Y-1.8945
X0.2942 Y-1.8934
X0.2914 Y-1.8921
X0.2905 Y-1.8916
X0.2858 Y-1.8891
X0.2803 Y-1.886 Z0.254
X0.2802 Y-1.8859
X0.2774 Y-1.8841
X0.2746 Y-1.8821
X0.2725 Y-1.8804
X0.269 Y-1.8775
X0.2657 Y-1.8748
X0.2634 Y-1.8727
X0.26 Y-1.8692
X0.2578 Y-1.8665
X0.2554 Y-1.8636
X0.2522 Y-1.8596
X0.251 Y-1.858 Z0.2539
X0.2491 Y-1.8552
X0.2474 Y-1.8524
X0.2466 Y-1.8509
X0.2444 Y-1.8468
X0.2416 Y-1.8412
X0.241 Y-1.8399
X0.2393 Y-1.8356
X0.2375 Y-1.83
X0.2358 Y-1.8244
X0.2354 Y-1.8227
X0.2346 Y-1.8188 Z0.2538
X0.2338 Y-1.8132
X0.2332 Y-1.8076
X0.2328 Y-1.802
Y-1.7964
Y0.2524 Z0.2489
X0.2327 Y0.2525
X-0.2327 Z0.2477
X-0.2328 Y0.2524
Y-1.7964 Z0.2428
Y-1.802
X-0.2332 Y-1.8076
X-0.2338 Y-1.8132
X-0.2346 Y-1.8188
X-0.2354 Y-1.8227 Z0.2427
X-0.2358 Y-1.8244
X-0.2375 Y-1.83
X-0.2393 Y-1.8356
X-0.241 Y-1.8399
X-0.2416 Y-1.8412
X-0.2444 Y-1.8468
X-0.2466 Y-1.8509
X-0.2474 Y-1.8524
X-0.2491 Y-1.8552
X-0.251 Y-1.858
X-0.2522 Y-1.8596 Z0.2426
X-0.2554 Y-1.8636
X-0.2578 Y-1.8665
X-0.26 Y-1.8692
X-0.2634 Y-1.8727
X-0.2657 Y-1.8748
X-0.269 Y-1.8775
X-0.2725 Y-1.8804
X-0.2746 Y-1.8821
X-0.2774 Y-1.8841
X-0.2802 Y-1.8859
X-0.2803 Y-1.886
X-0.2858 Y-1.8891 Z0.2425
X-0.2905 Y-1.8916
X-0.2914 Y-1.8921
X-0.2942 Y-1.8934
X-0.297 Y-1.8945
X-0.3026 Y-1.8964
X-0.3052 Y-1.8972
X-0.3082 Y-1.8981
X-0.311 Y-1.8989
X-0.3139 Y-1.8996
X-0.3167 Y-1.9001
X-0.3195 Y-1.9005
X-0.3251 Y-1.9011 Z0.2424
X-0.3307 Y-1.9016
X-0.3335 Y-1.9017
X-0.3363
X-0.3419 Y-1.9013
X-0.3475 Y-1.9008
X-0.3503 Y-1.9005
X-0.3531 Y-1.9001
X-0.3587 Y-1.8989
X-0.4035 Y-1.8899 Z0.2422
X-0.4091 Y-1.8888
X-0.4596 Y-1.8771 Z0.2421
X-0.4652 Y-1.8757
X-0.5156 Y-1.8625 Z0.242
X-0.5212 Y-1.8609
X-0.5694 Y-1.8468 Z0.2418
X-0.5717 Y-1.8461
X-0.6221 Y-1.8297 Z0.2417
X-0.6277 Y-1.8278
X-0.6725 Y-1.8117 Z0.2416
X-0.6781 Y-1.8097
X-0.7265 Y-1.7908 Z0.2414
X-0.7286 Y-1.79
X-0.7342 Y-1.7876
X-0.7795 Y-1.7684 Z0.2413
X-0.7846 Y-1.7661
X-0.8295 Y-1.7455 Z0.2412
X-0.8351 Y-1.7428 Z0.2411
X-0.8799 Y-1.7206 Z0.241
X-0.885 Y-1.718
X-0.9303 Y-1.6939 Z0.2409
X-0.9359 Y-1.6907
X-0.9767 Y-1.6676 Z0.2408
X-0.9808 Y-1.6652
X-1.0256 Y-1.6379 Z0.2406
X-1.0312 Y-1.6344
X-1.0705 Y-1.609 Z0.2405
X-1.0751 Y-1.606
X-1.0761 Y-1.6053
X-1.1156 Y-1.578 Z0.2404
X-1.1209 Y-1.5743 Z0.2403
X-1.1236 Y-1.5724
X-1.1617 Y-1.5444 Z0.2402
X-1.1657 Y-1.5414
X-1.1692 Y-1.5388
X-1.2051 Y-1.5108 Z0.2401
X-1.2106 Y-1.5064
X-1.2121 Y-1.5052
X-1.2527 Y-1.4715 Z0.2399
X-1.2554 Y-1.4693
X-1.2946 Y-1.4348 Z0.2398
X-1.2974 Y-1.4323
X-1.3339 Y-1.3984 Z0.2397
X-1.3393 Y-1.3931
X-1.3734 Y-1.3595 Z0.2396
X-1.3787 Y-1.3542 Z0.2395
X-1.4123 Y-1.3191 Z0.2394
X-1.4164 Y-1.3147
X-1.4518 Y-1.2755 Z0.2393
X-1.4567 Y-1.2699
X-1.4853 Y-1.2363 Z0.2391
X-1.49 Y-1.2307
X-1.5215 Y-1.1915 Z0.239
X-1.5244 Y-1.1879
X-1.5259 Y-1.1859
X-1.5555 Y-1.1467 Z0.2389
X-1.558 Y-1.1434
X-1.5597 Y-1.1411
X-1.5876 Y-1.1019 Z0.2387
X-1.5915 Y-1.0963
X-1.6197 Y-1.0542 Z0.2386
X-1.6215 Y-1.0515
X-1.625 Y-1.0459
X-1.6496 Y-1.0067 Z0.2385
X-1.653 Y-1.0011
X-1.6794 Y-0.9563 Z0.2383
X-1.6813 Y-0.9528
X-1.704 Y-0.9115 Z0.2382
X-1.7071 Y-0.9059
X-1.7094 Y-0.9015
X-1.7318 Y-0.8577 Z0.2381
X-1.7329 Y-0.8555
X-1.7543 Y-0.8107 Z0.2379
X-1.7569 Y-0.8051
X-1.7618 Y-0.7939
X-1.7767 Y-0.7603 Z0.2378
X-1.7791 Y-0.7547
X-1.7814 Y-0.7491
X-1.7997 Y-0.7043 Z0.2377
X-1.8018 Y-0.6987 Z0.2376
X-1.8186 Y-0.6539 Z0.2375
X-1.8206 Y-0.6483
X-1.8378 Y-0.5978 Z0.2374
X-1.8383 Y-0.5963
X-1.8413 Y-0.5866
X-1.8534 Y-0.5474 Z0.2373
X-1.855 Y-0.5418 Z0.2372
X-1.869 Y-0.4914 Z0.2371
X-1.8705 Y-0.4858
X-1.8815 Y-0.441 Z0.237
X-1.8829 Y-0.4354
X-1.8831 Y-0.4345
X-1.8841 Y-0.4298
X-1.8943 Y-0.3825 Z0.2368
X-1.895 Y-0.3794
X-1.9043 Y-0.329 Z0.2367
X-1.9053 Y-0.3234
X-1.9132 Y-0.273 Z0.2366
X-1.914 Y-0.2674
X-1.9203 Y-0.217 Z0.2364
X-1.9209 Y-0.2114
X-1.9258 Y-0.161 Z0.2363
X-1.9263 Y-0.1554
X-1.9284 Y-0.1243 Z0.2362
X-1.9297 Y-0.1046
X-1.9302 Y-0.0947 Z0.2361
X-1.9317 Y-0.0551
X-1.932 Y-0.0452 Z0.236
X-1.9325 Y0.0044 Z0.2359
Y0.0143
X-1.9315 Y0.0638 Z0.2358
X-1.9311 Y0.0737 Z0.2357
X-1.9292 Y0.1133 Z0.2356
X-1.9286 Y0.1232
X-1.9248 Y0.1726 Z0.2355
X-1.9239 Y0.1825
X-1.9186 Y0.2317 Z0.2354
X-1.9173 Y0.2416 Z0.2353
X-1.912 Y0.2808 Z0.2352
X-1.9106 Y0.2906
X-1.9025 Y0.3395 Z0.2351
X-1.9007 Y0.3493
X-1.8912 Y0.3979 Z0.235
X-1.889 Y0.4076 Z0.2349
X-1.8803 Y0.4462 Z0.2348
X-1.878 Y0.4559
X-1.8657 Y0.5038 Z0.2347
X-1.8631 Y0.5134
X-1.8494 Y0.561 Z0.2346
X-1.8464 Y0.5705 Z0.2345
X-1.8343 Y0.6082 Z0.2344
X-1.8312 Y0.6176
X-1.8148 Y0.6644 Z0.2343
X-1.8113 Y0.6736
X-1.7971 Y0.7106 Z0.2342
X-1.7935 Y0.7199 Z0.2341
X-1.7897 Y0.729
X-1.7744 Y0.7656 Z0.234
X-1.7705 Y0.7747
X-1.75 Y0.8198 Z0.2339
X-1.7458 Y0.8288
X-1.7284 Y0.8644 Z0.2338
X-1.724 Y0.8733 Z0.2337
X-1.7194 Y0.882
X-1.701 Y0.9171 Z0.2336
X-1.6963 Y0.9259
X-1.672 Y0.9691 Z0.2335
X-1.667 Y0.9776
X-1.6466 Y1.0116 Z0.2334
X-1.6415 Y1.02 Z0.2333
X-1.6361 Y1.0284
X-1.6147 Y1.0617 Z0.2332
X-1.6093 Y1.07
X-1.5813 Y1.1109 Z0.2331
X-1.5756 Y1.119 Z0.233
X-1.5523 Y1.1511
X-1.5464 Y1.1591 Z0.2329
X-1.5404 Y1.1669
X-1.5162 Y1.1983 Z0.2328
X-1.51 Y1.2061
X-1.4786 Y1.2444 Z0.2327
X-1.4722 Y1.2519 Z0.2326
X-1.4462 Y1.2818 Z0.2325
X-1.4396 Y1.2893
X-1.4061 Y1.3257 Z0.2324
X-1.3993 Y1.3329
X-1.3647 Y1.3684 Z0.2323
X-1.3576 Y1.3753 Z0.2322
X-1.3291 Y1.4029 Z0.2321
X-1.3219 Y1.4097
X-1.2853 Y1.4431 Z0.232
X-1.2779 Y1.4497
X-1.2404 Y1.482 Z0.2319
X-1.2327 Y1.4883 Z0.2318
X-1.2019 Y1.5132 Z0.2317
X-1.1942 Y1.5194
X-1.1548 Y1.5495 Z0.2316
X-1.1469 Y1.5554
X-1.1066 Y1.5843 Z0.2315
X-1.0985 Y1.5899 Z0.2314
X-1.0656 Y1.6121 Z0.2313
X-1.0574 Y1.6176
X-1.0156 Y1.6442 Z0.2312
X-1.0071 Y1.6493
X-0.9645 Y1.6747 Z0.231
X-0.9559 Y1.6795
X-0.9212 Y1.6988 Z0.2309
X-0.9126 Y1.7035
X-0.8686 Y1.7263 Z0.2308
X-0.8597 Y1.7308
X-0.8151 Y1.7523 Z0.2306
X-0.806 Y1.7563
X-0.7699 Y1.7725 Z0.2305
X-0.7608 Y1.7765
X-0.715 Y1.7954 Z0.2304
X-0.7058 Y1.799
X-0.6687 Y1.8131 Z0.2303
X-0.6594 Y1.8166 Z0.2302
X-0.6501 Y1.8198
X-0.6126 Y1.8328 Z0.2301
X-0.6032 Y1.836
X-0.556 Y1.8508 Z0.23
X-0.5465 Y1.8536 Z0.2299
X-0.5083 Y1.8644
X-0.4988 Y1.8671 Z0.2298
X-0.4892 Y1.8695
X-0.4508 Y1.8792 Z0.2297
X-0.4411 Y1.8815
X-0.3927 Y1.8922 Z0.2296
X-0.383 Y1.8942 Z0.2295
X-0.3441 Y1.9016 Z0.2294
X-0.3344 Y1.9034
X-0.3246 Y1.905
X-0.2854 Y1.9113 Z0.2293
X-0.2756 Y1.9128
X-0.2265 Y1.9192 Z0.2292
X-0.2167 Y1.9203 Z0.2291
X-0.1772 Y1.9243 Z0.229
X-0.1674 Y1.9253
X-0.1575 Y1.926
X-0.118 Y1.9289 Z0.2289
X-0.1081 Y1.9295
X-0.0586 Y1.9317 Z0.2288
X-0.0487 Y1.9319 Z0.2287
X-0.0091 Y1.9325 Z0.2286
X0.0009 Y1.9326
X0.0504 Y1.9319 Z0.2285
X0.0603 Y1.9316
X0.1098 Y1.9294 Z0.2284
X0.1197 Y1.9288 Z0.2283
X0.1592 Y1.9259 Z0.2282
X0.1691 Y1.9252
X0.2184 Y1.9201 Z0.2281
X0.2282 Y1.919
X0.2773 Y1.9126 Z0.2279
X0.2871 Y1.911
X0.3263 Y1.9047 Z0.2278
X0.336 Y1.9031
X0.3847 Y1.8938 Z0.2277
X0.3944 Y1.8918
X0.4428 Y1.8812 Z0.2275
X0.4524 Y1.8788
X0.4908 Y1.8691 Z0.2274
X0.5004 Y1.8666
X0.5481 Y1.8532 Z0.2273
X0.5576 Y1.8503
X0.6049 Y1.8355 Z0.2271
X0.6142 Y1.8323
X0.6517 Y1.8193 Z0.227
X0.661 Y1.816
X0.7074 Y1.7984 Z0.2269
X0.7166 Y1.7948 Z0.2268
X0.7624 Y1.7759 Z0.2267
X0.7714 Y1.7718
X0.8076 Y1.7557 Z0.2266
X0.8166 Y1.7515
X0.8612 Y1.73 Z0.2265
X0.8701 Y1.7256 Z0.2264
X0.9053 Y1.7073 Z0.2263
X0.9141 Y1.7027
X0.9227 Y1.6979
X0.9574 Y1.6787 Z0.2262
X0.966 Y1.6738
X1.0086 Y1.6485 Z0.2261
X1.017 Y1.6433 Z0.226
X1.0505 Y1.622 Z0.2259
X1.0588 Y1.6167
X1.067 Y1.6112
X1.0999 Y1.589 Z0.2258
X1.108 Y1.5833
X1.1483 Y1.5544 Z0.2257
X1.1562 Y1.5485 Z0.2256
X1.1877 Y1.5244 Z0.2255
X1.1955 Y1.5184
X1.2032 Y1.5122
X1.234 Y1.4872 Z0.2254
X1.2417 Y1.4809
X1.2792 Y1.4486 Z0.2253
X1.2866 Y1.4419 Z0.2252
X1.3159 Y1.4152 Z0.2251
X1.3232 Y1.4086
X1.3303 Y1.4017
X1.3588 Y1.3741 Z0.225
X1.3659 Y1.3672
X1.4005 Y1.3317 Z0.2248
X1.4072 Y1.3245
X1.4341 Y1.2953 Z0.2247
X1.4408 Y1.288
X1.4668 Y1.2581 Z0.2246
X1.4733 Y1.2506
X1.4797 Y1.2431
X1.5111 Y1.2047 Z0.2244
X1.5172 Y1.1969
X1.5414 Y1.1656 Z0.2243
X1.5474 Y1.1577
X1.5766 Y1.1176 Z0.2242
X1.5823 Y1.1095
X1.6102 Y1.0686 Z0.224
X1.6156 Y1.0603
X1.637 Y1.0269 Z0.2239
X1.6423 Y1.0186
X1.6679 Y0.9761 Z0.2238
X1.6729 Y0.9676 Z0.2237
X1.6971 Y0.9244 Z0.2236
X1.7018 Y0.9156
X1.7202 Y0.8805 Z0.2235
X1.7248 Y0.8717
X1.7465 Y0.8272 Z0.2234
X1.7507 Y0.8183 Z0.2233
X1.7712 Y0.7731 Z0.2232
X1.775 Y0.764
X1.7903 Y0.7274 Z0.2231
X1.7941 Y0.7183
X1.8119 Y0.672 Z0.223
X1.8153 Y0.6627 Z0.2229
X1.8318 Y0.616 Z0.2228
X1.8348 Y0.6066
X1.8469 Y0.5688 Z0.2227
X1.8498 Y0.5594
X1.8635 Y0.5118 Z0.2226
X1.8661 Y0.5022 Z0.2225
X1.8784 Y0.4542 Z0.2224
X1.8806 Y0.4445
X1.8894 Y0.4059 Z0.2223
X1.8915 Y0.3962
X1.901 Y0.3476 Z0.2222
X1.9027 Y0.3378 Z0.2221
X1.9092 Y0.2987 Z0.222
X1.9109 Y0.289
X1.9122 Y0.2791
X1.9176 Y0.2399 Z0.2219
X1.9188 Y0.23
X1.9241 Y0.1808 Z0.2217
X1.9249 Y0.1709
X1.928 Y0.1314 Z0.2216
X1.9288 Y0.1215
X1.9292 Y0.1116
X1.9312 Y0.072 Z0.2215
X1.9315 Y0.0621
X1.9325 Y0.0126 Z0.2213
Y0.0027
X1.9321 Y-0.0369 Z0.2212
X1.932 Y-0.0469
X1.9316 Y-0.0568
X1.9301 Y-0.0964 Z0.2211
X1.9296 Y-0.1063
X1.9263 Y-0.1557 Z0.2209
X1.9254 Y-0.1656
X1.9216 Y-0.205 Z0.2208
X1.9206 Y-0.2149
X1.9181 Y-0.2345 Z0.2207
X1.9144 Y-0.264
X1.913 Y-0.2738 Z0.2206
X1.9054 Y-0.3228 Z0.2205
X1.9037 Y-0.3325
X1.8964 Y-0.3715 Z0.2204
X1.8946 Y-0.3812
X1.8841 Y-0.4297 Z0.2203
X1.8819 Y-0.4393 Z0.2202
X1.8701 Y-0.4874 Z0.2201
X1.8675 Y-0.497
X1.8569 Y-0.5352 Z0.22
X1.8542 Y-0.5447
X1.8396 Y-0.5921 Z0.2199
X1.8365 Y-0.6015 Z0.2198
X1.8205 Y-0.6484 Z0.2197
X1.8171 Y-0.6577
X1.8033 Y-0.6948 Z0.2196
X1.7997 Y-0.7041
X1.7811 Y-0.75 Z0.2195
X1.7772 Y-0.7591 Z0.2194
X1.7572 Y-0.8044 Z0.2193
X1.753 Y-0.8134
X1.7359 Y-0.8492 Z0.2192
X1.7316 Y-0.8581
X1.709 Y-0.9022 Z0.2191
X1.7044 Y-0.9109 Z0.219
X1.6805 Y-0.9543 Z0.2189
X1.6755 Y-0.9629
X1.6554 Y-0.9971 Z0.2188
X1.6503 Y-1.0056
X1.624 Y-1.0475 Z0.2186
X1.6186 Y-1.0558
X1.591 Y-1.097 Z0.2185
X1.5853 Y-1.1051
X1.5623 Y-1.1374 Z0.2184
X1.5565 Y-1.1454
X1.5266 Y-1.1849 Z0.2182
X1.5205 Y-1.1927
X1.4957 Y-1.2236 Z0.2181
X1.4895 Y-1.2314
X1.4831 Y-1.2389
X1.4574 Y-1.2691 Z0.218
X1.4509 Y-1.2766
X1.4177 Y-1.3133 Z0.2178
X1.4109 Y-1.3206
X1.3835 Y-1.3492 Z0.2177
X1.3767 Y-1.3563
X1.3696 Y-1.3633
X1.3414 Y-1.3911 Z0.2176
X1.3343 Y-1.398 Z0.2175
X1.298 Y-1.4318 Z0.2174
X1.2906 Y-1.4384
X1.2608 Y-1.4645 Z0.2173
X1.2534 Y-1.471
X1.2457 Y-1.4774
X1.2152 Y-1.5026 Z0.2172
X1.2075 Y-1.5089 Z0.2171
X1.1684 Y-1.5393 Z0.217
X1.1605 Y-1.5453
X1.1285 Y-1.5687 Z0.2169
X1.1205 Y-1.5746
X1.1124 Y-1.5802
X1.0798 Y-1.6027 Z0.2168
X1.0715 Y-1.6082 Z0.2167
X1.03 Y-1.6352 Z0.2166
X1.0215 Y-1.6404
X0.9877 Y-1.661 Z0.2165
X0.9792 Y-1.6661
X0.9361 Y-1.6906 Z0.2164
X0.9275 Y-1.6954 Z0.2163
X0.8837 Y-1.7187 Z0.2162
X0.8749 Y-1.7231
X0.8393 Y-1.7407 Z0.2161
X0.8304 Y-1.745
X0.7854 Y-1.7657 Z0.216
X0.7764 Y-1.7697 Z0.2159
X0.7307 Y-1.7891 Z0.2158
X0.7215 Y-1.7927
X0.6846 Y-1.8071 Z0.2157
X0.6754 Y-1.8107
X0.6287 Y-1.8274 Z0.2155
X0.6193 Y-1.8306
X0.5722 Y-1.8459 Z0.2154
X0.5627 Y-1.8487
X0.5247 Y-1.8599 Z0.2153
X0.5152 Y-1.8626
X0.4673 Y-1.8752 Z0.2151
X0.4576 Y-1.8775
X0.4094 Y-1.8887 Z0.215
X0.3997 Y-1.8907
X0.3559 Y-1.8995 Z0.2149
X0.3511 Y-1.9004
X0.3412 Y-1.9014 Z0.2148
X0.3363 Y-1.9017
X0.3313
X0.3264 Y-1.9012
X0.3214 Y-1.9007
X0.3165 Y-1.9001
X0.3117 Y-1.8991
X0.3069 Y-1.8977 Z0.2147
X0.3022 Y-1.8963
X0.2975 Y-1.8947
X0.2929 Y-1.8928
X0.2885 Y-1.8905
X0.2842 Y-1.8882
X0.2798 Y-1.8857
X0.2757 Y-1.883
X0.2718 Y-1.8799
X0.268 Y-1.8767 Z0.2146
X0.2643 Y-1.8735
X0.2608 Y-1.87
X0.2575 Y-1.8662
X0.2544 Y-1.8624
X0.2514 Y-1.8585
X0.2486 Y-1.8544
X0.2462 Y-1.8501
X0.2438 Y-1.8457 Z0.2145
X0.2416 Y-1.8413
X0.2397 Y-1.8367
X0.2381 Y-1.832
X0.2367 Y-1.8273
X0.2353 Y-1.8225
X0.2343 Y-1.8176
X0.2337 Y-1.8127
X0.2333 Y-1.8078 Z0.2144
X0.2328 Y-1.8028
Y-1.7979
Y0.2433 Z0.2095
Y0.2515
Y0.2524
X0.2326 Y0.2525
X0.232
X-0.2238 Z0.2084
X-0.2319
X-0.2327
X-0.2328 Y0.2523
Y0.2515
Y-1.7996 Z0.2034
X-0.233 Y-1.8045
X-0.2334 Y-1.8095
X-0.2339 Y-1.8144
X-0.2346 Y-1.8193
X-0.2358 Y-1.8241
X-0.2372 Y-1.8289
X-0.2386 Y-1.8336 Z0.2033
X-0.2403 Y-1.8383
X-0.2423 Y-1.8428
X-0.2446 Y-1.8472
X-0.247 Y-1.8516
X-0.2495 Y-1.8558
X-0.2524 Y-1.8598
X-0.2555 Y-1.8637
X-0.2586 Y-1.8675
X-0.2619 Y-1.8712 Z0.2032
X-0.2655 Y-1.8746
X-0.2693 Y-1.8778
X-0.2732 Y-1.881
X-0.2771 Y-1.8839
X-0.2813 Y-1.8866
X-0.2857 Y-1.889
X-0.29 Y-1.8913
X-0.2945 Y-1.8935 Z0.2031
X-0.2991 Y-1.8953
X-0.3038 Y-1.8968
X-0.3085 Y-1.8982
X-0.3133 Y-1.8995
X-0.3182 Y-1.9003
X-0.3231 Y-1.9009
X-0.3281 Y-1.9014
X-0.333 Y-1.9017
X-0.338 Y-1.9016 Z0.203
X-0.3429 Y-1.9012
X-0.3478 Y-1.9008
X-0.3527 Y-1.9001
X-0.3625 Y-1.8982
X-0.4013 Y-1.8904 Z0.2029
X-0.411 Y-1.8883
X-0.4593 Y-1.8772 Z0.2027
X-0.4689 Y-1.8748
X-0.5072 Y-1.8647 Z0.2026
X-0.5168 Y-1.8622
X-0.5263 Y-1.8594
X-0.5644 Y-1.8483 Z0.2025
X-0.5738 Y-1.8454
X-0.621 Y-1.8301 Z0.2023
X-0.6303 Y-1.8268
X-0.6676 Y-1.8135 Z0.2022
X-0.677 Y-1.8101
X-0.6862 Y-1.8065
X-0.7231 Y-1.7921 Z0.2021
X-0.7323 Y-1.7884 Z0.202
X-0.7779 Y-1.7691 Z0.2019
X-0.787 Y-1.765
X-0.823 Y-1.7485 Z0.2018
X-0.832 Y-1.7443
X-0.8409 Y-1.7399
X-0.8764 Y-1.7224 Z0.2017
X-0.8852 Y-1.7179 Z0.2016
X-0.929 Y-1.6946 Z0.2015
X-0.9376 Y-1.6898
X-0.9721 Y-1.6702 Z0.2014
X-0.9807 Y-1.6653
X-1.023 Y-1.6395 Z0.2013
X-1.0314 Y-1.6343 Z0.2012
X-1.073 Y-1.6073 Z0.2011
X-1.0812 Y-1.6017
X-1.1138 Y-1.5792 Z0.201
X-1.1219 Y-1.5736
X-1.1619 Y-1.5443 Z0.2009
X-1.1698 Y-1.5383 Z0.2008
X-1.2088 Y-1.5078 Z0.2007
X-1.2165 Y-1.5015
X-1.247 Y-1.4763 Z0.2006
X-1.2546 Y-1.4699
X-1.2919 Y-1.4372 Z0.2005
X-1.2992 Y-1.4306 Z0.2004
X-1.3355 Y-1.3969 Z0.2003
X-1.3426 Y-1.3899
X-1.3708 Y-1.3621 Z0.2002
X-1.3778 Y-1.3551
X-1.4121 Y-1.3193 Z0.2
X-1.4188 Y-1.3121
X-1.452 Y-1.2753 Z0.1999
X-1.4585 Y-1.2678
X-1.4842 Y-1.2376 Z0.1998
X-1.4906 Y-1.23
X-1.5216 Y-1.1914 Z0.1996
X-1.5277 Y-1.1836
X-1.5576 Y-1.1441 Z0.1995
X-1.5633 Y-1.136
X-1.5863 Y-1.1037 Z0.1994
X-1.592 Y-1.0956
X-1.6195 Y-1.0544 Z0.1992
X-1.6249 Y-1.0461
X-1.646 Y-1.0125 Z0.1991
X-1.6512 Y-1.0041
X-1.6563 Y-0.9956
X-1.6764 Y-0.9614 Z0.199
X-1.6813 Y-0.9528 Z0.1989
X-1.7052 Y-0.9094 Z0.1988
X-1.7098 Y-0.9007
X-1.7279 Y-0.8654 Z0.1987
X-1.7324 Y-0.8566
X-1.7367 Y-0.8476
X-1.7537 Y-0.8118 Z0.1986
X-1.7579 Y-0.8029 Z0.1985
X-1.7779 Y-0.7575 Z0.1984
X-1.7817 Y-0.7484
X-1.7966 Y-0.7117 Z0.1983
X-1.8004 Y-0.7025
X-1.8039 Y-0.6932
X-1.8177 Y-0.6561 Z0.1982
X-1.8211 Y-0.6468 Z0.1981
X-1.8371 Y-0.5999 Z0.198
X-1.8401 Y-0.5904
X-1.8518 Y-0.5526 Z0.1979
X-1.8547 Y-0.5431
X-1.8573 Y-0.5336
X-1.8679 Y-0.4954 Z0.1978
X-1.8705 Y-0.4858 Z0.1977
X-1.8823 Y-0.4377 Z0.1976
X-1.8845 Y-0.428
X-1.8929 Y-0.3893 Z0.1975
X-1.8949 Y-0.3796
X-1.8985 Y-0.3601 Z0.1974
X-1.904 Y-0.3309
X-1.9057 Y-0.3211 Z0.1973
X-1.9133 Y-0.2722 Z0.1972
X-1.9146 Y-0.2623
X-1.9196 Y-0.223 Z0.1971
X-1.9208 Y-0.2132
X-1.9256 Y-0.1639 Z0.1969
X-1.9264 Y-0.154
X-1.9297 Y-0.1046 Z0.1968
X-1.9302 Y-0.0947
X-1.9317 Y-0.0551 Z0.1967
X-1.932 Y-0.0452
X-1.9325 Y0.0044 Z0.1965
Y0.0143
X-1.9315 Y0.0638 Z0.1964
X-1.9311 Y0.0737
X-1.9292 Y0.1133 Z0.1963
X-1.9286 Y0.1232
X-1.9248 Y0.1726 Z0.1961
X-1.9239 Y0.1825
X-1.9186 Y0.2317 Z0.196
X-1.9173 Y0.2416
X-1.912 Y0.2808 Z0.1959
X-1.9106 Y0.2906 Z0.1958
X-1.9025 Y0.3395 Z0.1957
X-1.9007 Y0.3493
X-1.8912 Y0.3979 Z0.1956
X-1.889 Y0.4076
X-1.8803 Y0.4462 Z0.1955
X-1.878 Y0.4559 Z0.1954
X-1.8657 Y0.5038 Z0.1953
X-1.8631 Y0.5134
X-1.8494 Y0.561 Z0.1952
X-1.8464 Y0.5705
X-1.8343 Y0.6082 Z0.1951
X-1.8312 Y0.6176 Z0.195
X-1.8148 Y0.6644 Z0.1949
X-1.8113 Y0.6736
X-1.7971 Y0.7106 Z0.1948
X-1.7935 Y0.7199
X-1.7897 Y0.729
X-1.7744 Y0.7656 Z0.1947
X-1.7705 Y0.7747 Z0.1946
X-1.75 Y0.8198 Z0.1945
X-1.7458 Y0.8288
X-1.7284 Y0.8644 Z0.1944
X-1.724 Y0.8733
X-1.7194 Y0.882 Z0.1943
X-1.701 Y0.9171
X-1.6963 Y0.9259 Z0.1942
X-1.672 Y0.9691 Z0.1941
X-1.667 Y0.9776
X-1.6466 Y1.0116 Z0.194
X-1.6415 Y1.02
X-1.6361 Y1.0284 Z0.1939
X-1.6147 Y1.0617 Z0.1938
X-1.6093 Y1.07
X-1.5813 Y1.1109 Z0.1937
X-1.5756 Y1.119
X-1.5523 Y1.1511 Z0.1936
X-1.5464 Y1.1591
X-1.5404 Y1.1669 Z0.1935
X-1.5162 Y1.1983 Z0.1934
X-1.51 Y1.2061
X-1.4786 Y1.2444 Z0.1933
X-1.4722 Y1.2519
X-1.4462 Y1.2818 Z0.1932
X-1.4396 Y1.2893
X-1.4061 Y1.3257 Z0.193
X-1.3993 Y1.3329
X-1.3647 Y1.3684 Z0.1929
X-1.3576 Y1.3753
X-1.3291 Y1.4029 Z0.1928
X-1.3219 Y1.4097 Z0.1927
X-1.2853 Y1.4431 Z0.1926
X-1.2779 Y1.4497
X-1.2404 Y1.482 Z0.1925
X-1.2327 Y1.4883
X-1.2019 Y1.5132 Z0.1924
X-1.1942 Y1.5194 Z0.1923
X-1.1548 Y1.5495 Z0.1922
X-1.1469 Y1.5554
X-1.1066 Y1.5843 Z0.1921
X-1.0985 Y1.5899
X-1.0656 Y1.6121 Z0.192
X-1.0574 Y1.6176 Z0.1919
X-1.0156 Y1.6442 Z0.1918
X-1.0071 Y1.6493
X-0.9645 Y1.6747 Z0.1917
X-0.9559 Y1.6795
X-0.9212 Y1.6988 Z0.1916
X-0.9126 Y1.7035 Z0.1915
X-0.8686 Y1.7263 Z0.1914
X-0.8597 Y1.7308
X-0.8151 Y1.7523 Z0.1913
X-0.806 Y1.7563 Z0.1912
X-0.7699 Y1.7725
X-0.7608 Y1.7765 Z0.1911
X-0.715 Y1.7954 Z0.191
X-0.7058 Y1.799
X-0.6687 Y1.8131 Z0.1909
X-0.6594 Y1.8166
X-0.6501 Y1.8198 Z0.1908
X-0.6126 Y1.8328 Z0.1907
X-0.6032 Y1.836
X-0.556 Y1.8508 Z0.1906
X-0.5465 Y1.8536
X-0.5083 Y1.8644 Z0.1905
X-0.4988 Y1.8671
X-0.4892 Y1.8695 Z0.1904
X-0.4508 Y1.8792 Z0.1903
X-0.4411 Y1.8815
X-0.3927 Y1.8922 Z0.1902
X-0.383 Y1.8942
X-0.3441 Y1.9016 Z0.1901
X-0.3344 Y1.9034
X-0.3246 Y1.905 Z0.19
X-0.2854 Y1.9113 Z0.1899
X-0.2756 Y1.9128
X-0.2265 Y1.9192 Z0.1898
X-0.2167 Y1.9203
X-0.1772 Y1.9243 Z0.1897
X-0.1674 Y1.9253 Z0.1896
X-0.1575 Y1.926
X-0.118 Y1.9289 Z0.1895
X-0.1081 Y1.9295
X-0.0586 Y1.9317 Z0.1894
X-0.0487 Y1.9319
X-0.0091 Y1.9325 Z0.1893
X0.0009 Y1.9326 Z0.1892
X0.0504 Y1.9319 Z0.1891
X0.0603 Y1.9316
X0.1098 Y1.9294 Z0.189
X0.1197 Y1.9288
X0.1592 Y1.9259 Z0.1889
X0.1691 Y1.9252 Z0.1888
X0.2184 Y1.9201 Z0.1887
X0.2282 Y1.919
X0.2773 Y1.9126 Z0.1886
X0.2871 Y1.911
X0.3263 Y1.9047 Z0.1885
X0.336 Y1.9031 Z0.1884
X0.3847 Y1.8938 Z0.1883
X0.3944 Y1.8918
X0.4428 Y1.8812 Z0.1882
X0.4524 Y1.8788 Z0.1881
X0.4908 Y1.8691
X0.5004 Y1.8666 Z0.188
X0.5481 Y1.8532 Z0.1879
X0.5576 Y1.8503
X0.6049 Y1.8355 Z0.1878
X0.6142 Y1.8323 Z0.1877
X0.6517 Y1.8193 Z0.1876
X0.661 Y1.816
X0.7074 Y1.7984 Z0.1875
X0.7166 Y1.7948
X0.7624 Y1.7759 Z0.1874
X0.7714 Y1.7718 Z0.1873
X0.8076 Y1.7557 Z0.1872
X0.8166 Y1.7515
X0.8612 Y1.73 Z0.1871
X0.8701 Y1.7256
X0.9053 Y1.7073 Z0.187
X0.9141 Y1.7027
X0.9227 Y1.6979 Z0.1869
X0.9574 Y1.6787 Z0.1868
X0.966 Y1.6738
X1.0086 Y1.6485 Z0.1867
X1.017 Y1.6433
X1.0505 Y1.622 Z0.1866
X1.0588 Y1.6167 Z0.1865
X1.067 Y1.6112
X1.0999 Y1.589 Z0.1864
X1.108 Y1.5833
X1.1483 Y1.5544 Z0.1863
X1.1562 Y1.5485
X1.1877 Y1.5244 Z0.1862
X1.1955 Y1.5184 Z0.1861
X1.2032 Y1.5122
X1.234 Y1.4872 Z0.186
X1.2417 Y1.4809
X1.2792 Y1.4486 Z0.1859
X1.2866 Y1.4419
X1.3159 Y1.4152 Z0.1858
X1.3232 Y1.4086 Z0.1857
X1.3303 Y1.4017
X1.3588 Y1.3741 Z0.1856
X1.3659 Y1.3672
X1.4005 Y1.3317 Z0.1855
X1.4072 Y1.3245
X1.4341 Y1.2953 Z0.1854
X1.4408 Y1.288 Z0.1853
X1.4668 Y1.2581 Z0.1852
X1.4733 Y1.2506
X1.4797 Y1.2431
X1.5111 Y1.2047 Z0.1851
X1.5172 Y1.1969 Z0.185
X1.5414 Y1.1656
X1.5474 Y1.1577 Z0.1849
X1.5766 Y1.1176 Z0.1848
X1.5823 Y1.1095
X1.6102 Y1.0686 Z0.1847
X1.6156 Y1.0603 Z0.1846
X1.637 Y1.0269 Z0.1845
X1.6423 Y1.0186
X1.6679 Y0.9761 Z0.1844
X1.6729 Y0.9676
X1.6971 Y0.9244 Z0.1843
X1.7018 Y0.9156 Z0.1842
X1.7202 Y0.8805 Z0.1841
X1.7248 Y0.8717
X1.7465 Y0.8272 Z0.184
X1.7507 Y0.8183
X1.7712 Y0.7731 Z0.1839
X1.775 Y0.764 Z0.1838
X1.7903 Y0.7274 Z0.1837
X1.7941 Y0.7183
X1.8119 Y0.672 Z0.1836
X1.8153 Y0.6627
X1.8318 Y0.616 Z0.1834
X1.8348 Y0.6066
X1.8469 Y0.5688 Z0.1833
X1.8498 Y0.5594
X1.8635 Y0.5118 Z0.1832
X1.8661 Y0.5022
X1.8784 Y0.4542 Z0.183
X1.8806 Y0.4445
X1.8894 Y0.4059 Z0.1829
X1.8915 Y0.3962
X1.901 Y0.3476 Z0.1828
X1.9027 Y0.3378
X1.9092 Y0.2987 Z0.1827
X1.9109 Y0.289 Z0.1826
X1.9122 Y0.2791
X1.9176 Y0.2399 Z0.1825
X1.9188 Y0.23
X1.9241 Y0.1808 Z0.1824
X1.9249 Y0.1709
X1.928 Y0.1314 Z0.1823
X1.9288 Y0.1215 Z0.1822
X1.9292 Y0.1116
X1.9312 Y0.072 Z0.1821
X1.9315 Y0.0621
X1.9325 Y0.0126 Z0.182
Y0.0027 Z0.1819
X1.9321 Y-0.0369
X1.932 Y-0.0469 Z0.1818
X1.9316 Y-0.0568
X1.9301 Y-0.0964 Z0.1817
X1.9296 Y-0.1063
X1.9263 Y-0.1557 Z0.1816
X1.9254 Y-0.1656 Z0.1815
X1.9216 Y-0.205 Z0.1814
X1.9206 Y-0.2149
X1.9181 Y-0.2345
X1.9144 Y-0.264 Z0.1813
X1.913 Y-0.2738
X1.9054 Y-0.3228 Z0.1812
X1.9037 Y-0.3325 Z0.1811
X1.8964 Y-0.3715 Z0.181
X1.8946 Y-0.3812
X1.8841 Y-0.4297 Z0.1809
X1.8819 Y-0.4393
X1.8701 Y-0.4874 Z0.1808
X1.8675 Y-0.497 Z0.1807
X1.8569 Y-0.5352 Z0.1806
X1.8542 Y-0.5447
X1.8396 Y-0.5921 Z0.1805
X1.8365 Y-0.6015
X1.8205 Y-0.6484 Z0.1803
X1.8171 Y-0.6577
X1.8033 Y-0.6948 Z0.1802
X1.7997 Y-0.7041
X1.7811 Y-0.75 Z0.1801
X1.7772 Y-0.7591
X1.7572 Y-0.8044 Z0.1799
X1.753 Y-0.8134
X1.7359 Y-0.8492 Z0.1798
X1.7316 Y-0.8581
X1.709 Y-0.9022 Z0.1797
X1.7044 Y-0.9109
X1.6805 Y-0.9543 Z0.1795
X1.6755 Y-0.9629
X1.6554 Y-0.9971 Z0.1794
X1.6503 Y-1.0056
X1.624 Y-1.0475 Z0.1793
X1.6186 Y-1.0558
X1.591 Y-1.097 Z0.1791
X1.5853 Y-1.1051
X1.5623 Y-1.1374 Z0.179
X1.5565 Y-1.1454
X1.5266 Y-1.1849 Z0.1789
X1.5205 Y-1.1927 Z0.1788
X1.4957 Y-1.2236
X1.4895 Y-1.2314 Z0.1787
X1.4831 Y-1.2389
X1.4574 Y-1.2691 Z0.1786
X1.4509 Y-1.2766
X1.4177 Y-1.3133 Z0.1785
X1.4109 Y-1.3206 Z0.1784
X1.3835 Y-1.3492 Z0.1783
X1.3767 Y-1.3563
X1.3696 Y-1.3633
X1.3414 Y-1.3911 Z0.1782
X1.3343 Y-1.398
X1.298 Y-1.4318 Z0.1781
X1.2906 Y-1.4384 Z0.178
X1.2608 Y-1.4645 Z0.1779
X1.2534 Y-1.471
X1.2457 Y-1.4774
X1.2152 Y-1.5026 Z0.1778
X1.2075 Y-1.5089
X1.1684 Y-1.5393 Z0.1777
X1.1605 Y-1.5453 Z0.1776
X1.1285 Y-1.5687 Z0.1775
X1.1205 Y-1.5746
X1.1124 Y-1.5802
X1.0798 Y-1.6027 Z0.1774
X1.0715 Y-1.6082
X1.03 Y-1.6352 Z0.1772
X1.0215 Y-1.6404
X0.9877 Y-1.661 Z0.1771
X0.9792 Y-1.6661
X0.9361 Y-1.6906 Z0.177
X0.9275 Y-1.6954
X0.8837 Y-1.7187 Z0.1768
X0.8749 Y-1.7231
X0.8393 Y-1.7407 Z0.1767
X0.8304 Y-1.745
X0.7854 Y-1.7657 Z0.1766
X0.7764 Y-1.7697
X0.7307 Y-1.7891 Z0.1764
X0.7215 Y-1.7927
X0.6846 Y-1.8071 Z0.1763
X0.6754 Y-1.8107
X0.6287 Y-1.8274 Z0.1762
X0.6193 Y-1.8306
X0.5722 Y-1.8459 Z0.176
X0.5627 Y-1.8487
X0.5247 Y-1.8599 Z0.1759
X0.5152 Y-1.8626
X0.4673 Y-1.8752 Z0.1758
X0.4576 Y-1.8775 Z0.1757
X0.4094 Y-1.8887 Z0.1756
X0.3997 Y-1.8907
X0.3559 Y-1.8995 Z0.1755
X0.3511 Y-1.9004
X0.3412 Y-1.9014
X0.3363 Y-1.9017 Z0.1754
X0.3313
X0.3264 Y-1.9012
X0.3214 Y-1.9007
X0.3165 Y-1.9001
X0.3117 Y-1.8991
X0.3069 Y-1.8977
X0.3022 Y-1.8963
X0.2975 Y-1.8947
X0.2929 Y-1.8928 Z0.1753
X0.2885 Y-1.8905
X0.2842 Y-1.8882
X0.2798 Y-1.8857
X0.2757 Y-1.883
X0.2718 Y-1.8799
X0.268 Y-1.8767
X0.2643 Y-1.8735
X0.2608 Y-1.87 Z0.1752
X0.2575 Y-1.8662
X0.2544 Y-1.8624
X0.2514 Y-1.8585
X0.2486 Y-1.8544
X0.2462 Y-1.8501
X0.2438 Y-1.8457
X0.2416 Y-1.8413
X0.2397 Y-1.8367
X0.2381 Y-1.832 Z0.1751
X0.2367 Y-1.8273
X0.2353 Y-1.8225
X0.2343 Y-1.8176
X0.2337 Y-1.8127
X0.2333 Y-1.8078
X0.2328 Y-1.8028
Y-1.7979
Y0.2433 Z0.1701
Y0.2515
Y0.2524
X0.2326 Y0.2525
X0.232
X-0.2238 Z0.169
X-0.2319
X-0.2327
X-0.2328 Y0.2523
Y0.2515
Y-1.7996 Z0.1641
X-0.233 Y-1.8045 Z0.164
X-0.2334 Y-1.8095
X-0.2339 Y-1.8144
X-0.2346 Y-1.8193
X-0.2358 Y-1.8241
X-0.2372 Y-1.8289
X-0.2386 Y-1.8336
X-0.2403 Y-1.8383
X-0.2423 Y-1.8428
X-0.2446 Y-1.8472 Z0.1639
X-0.247 Y-1.8516
X-0.2495 Y-1.8558
X-0.2524 Y-1.8598
X-0.2555 Y-1.8637
X-0.2586 Y-1.8675
X-0.2619 Y-1.8712
X-0.2655 Y-1.8746
X-0.2693 Y-1.8778 Z0.1638
X-0.2732 Y-1.881
X-0.2771 Y-1.8839
X-0.2813 Y-1.8866
X-0.2857 Y-1.889
X-0.29 Y-1.8913
X-0.2945 Y-1.8935
X-0.2991 Y-1.8953
X-0.3038 Y-1.8968
X-0.3085 Y-1.8982 Z0.1637
X-0.3133 Y-1.8995
X-0.3182 Y-1.9003
X-0.3231 Y-1.9009
X-0.3281 Y-1.9014
X-0.333 Y-1.9017
X-0.338 Y-1.9016
X-0.3429 Y-1.9012
X-0.3478 Y-1.9008 Z0.1636
X-0.3527 Y-1.9001
X-0.3625 Y-1.8982
X-0.4013 Y-1.8904 Z0.1635
X-0.411 Y-1.8883
X-0.4593 Y-1.8772 Z0.1634
X-0.4689 Y-1.8748 Z0.1633
X-0.5072 Y-1.8647
X-0.5168 Y-1.8622 Z0.1632
X-0.5263 Y-1.8594
X-0.5644 Y-1.8483 Z0.1631
X-0.5738 Y-1.8454
X-0.621 Y-1.8301 Z0.163
X-0.6303 Y-1.8268 Z0.1629
X-0.6676 Y-1.8135 Z0.1628
X-0.677 Y-1.8101
X-0.6862 Y-1.8065
X-0.7231 Y-1.7921 Z0.1627
X-0.7323 Y-1.7884
X-0.7779 Y-1.7691 Z0.1626
X-0.787 Y-1.765 Z0.1625
X-0.823 Y-1.7485 Z0.1624
X-0.832 Y-1.7443
X-0.8409 Y-1.7399
X-0.8764 Y-1.7224 Z0.1623
X-0.8852 Y-1.7179
X-0.929 Y-1.6946 Z0.1622
X-0.9376 Y-1.6898 Z0.1621
X-0.9721 Y-1.6702 Z0.162
X-0.9807 Y-1.6653
X-1.023 Y-1.6395 Z0.1619
X-1.0314 Y-1.6343
X-1.073 Y-1.6073 Z0.1617
X-1.0812 Y-1.6017
X-1.1138 Y-1.5792 Z0.1616
X-1.1219 Y-1.5736
X-1.1619 Y-1.5443 Z0.1615
X-1.1698 Y-1.5383
X-1.2088 Y-1.5078 Z0.1613
X-1.2165 Y-1.5015
X-1.247 Y-1.4763 Z0.1612
X-1.2546 Y-1.4699
